;FLAVOR:Marlin
;TIME:5721
;Filament used: 2.86457m
;Layer height: 0.13125
;MINX:29.925
;MINY:16.846
;MINZ:0.263
;MAXX:90.075
;MAXY:103.149
;MAXZ:48.733
;Generated with Cura_SteamEngine 4.13.1
M140 S65
M105
M190 S65
M104 S205
M105
M109 S205
M82 ;absolute extrusion mode
G21;(metric values)
G90;(absolute positioning)
M82;(set extruder to absolute mode)
M107;(start with the fan off)
G28;(Home the printer)
G92 E0;(Reset the extruder to 0)
G0 Z5 E5 F500;(Move up and prime the nozzle)
G0 X-1 Z0;(Move outside the printable area)
G1 Y60 E8 F500;(Draw a priming/wiping line to the rear)
G1 X-1;(Move a little closer to the print area)
G1 Y10 E16 F500;(draw more priming/wiping)
G1 E15 F250;(Small retract)
G92 E0;(Zero the extruder)
G92 E0
G92 E0
G1 F2400 E-2.5
;LAYER_COUNT:373
;LAYER:0
M107
G0 F4320 X32.835 Y63.357 Z0.263
;TYPE:SKIRT
G1 F2400 E0
G1 F1800 X33.427 Y63.122 E0.02438
G1 X34.044 Y62.963 E0.04876
G1 X34.676 Y62.882 E0.07314
G1 X35 Y62.872 E0.08555
G1 X44.934 Y62.872 E0.46572
G1 X45.57 Y62.912 E0.49011
G1 X46.195 Y63.031 E0.51446
G1 X46.801 Y63.228 E0.53885
G1 X47.377 Y63.499 E0.56321
G1 X47.915 Y63.84 E0.58758
G1 X48.406 Y64.246 E0.61197
G1 X48.842 Y64.71 E0.63633
G1 X49.217 Y65.225 E0.66071
G1 X49.524 Y65.782 E0.68505
G1 X49.759 Y66.374 E0.70943
G1 X49.918 Y66.991 E0.73381
G1 X49.999 Y67.623 E0.7582
G1 X50.009 Y67.947 E0.7706
G1 X50.009 Y84.503 E1.4042
G1 X49.969 Y85.139 E1.42859
G1 X49.85 Y85.764 E1.45294
G1 X49.653 Y86.37 E1.47732
G1 X49.382 Y86.946 E1.50168
G1 X49.041 Y87.484 E1.52606
G1 X48.635 Y87.975 E1.55044
G1 X48.171 Y88.411 E1.57481
G1 X47.656 Y88.786 E1.59919
G1 X47.099 Y89.093 E1.62353
G1 X46.507 Y89.328 E1.6479
G1 X45.89 Y89.487 E1.67229
G1 X45.258 Y89.568 E1.69667
G1 X44.934 Y89.578 E1.70908
G1 X35 Y89.578 E2.08925
G1 X34.364 Y89.538 E2.11364
G1 X33.739 Y89.419 E2.13799
G1 X33.133 Y89.222 E2.16237
G1 X32.557 Y88.951 E2.18674
G1 X32.019 Y88.61 E2.21111
G1 X31.528 Y88.204 E2.23549
G1 X31.092 Y87.74 E2.25986
G1 X30.717 Y87.225 E2.28424
G1 X30.41 Y86.668 E2.30858
G1 X30.175 Y86.076 E2.33296
G1 X30.016 Y85.459 E2.35734
G1 X29.935 Y84.827 E2.38173
G1 X29.925 Y84.503 E2.39413
G1 X29.925 Y67.947 E3.02773
G1 X29.965 Y67.311 E3.05212
G1 X30.084 Y66.686 E3.07646
G1 X30.281 Y66.08 E3.10085
G1 X30.552 Y65.504 E3.12521
G1 X30.893 Y64.966 E3.14959
G1 X31.299 Y64.475 E3.17397
G1 X31.763 Y64.039 E3.19834
G1 X32.232 Y63.698 E3.22053
G0 F1620 X32.278 Y63.664
G0 X32.835 Y63.357
G0 F4320 X33.162 Y63.594
G1 F1800 X33.743 Y63.392 E3.24407
G1 X34.344 Y63.268 E3.26755
G1 X35 Y63.222 E3.29272
G1 X44.934 Y63.222 E3.67289
G1 X45.547 Y63.262 E3.6964
G1 X46.15 Y63.381 E3.71993
G1 X46.732 Y63.578 E3.74344
G1 X47.284 Y63.848 E3.76696
G1 X47.796 Y64.188 E3.79048
G1 X48.26 Y64.591 E3.814
G1 X48.667 Y65.051 E3.8375
G1 X49.012 Y65.56 E3.86104
G1 X49.287 Y66.109 E3.88453
G1 X49.489 Y66.69 E3.90807
G1 X49.613 Y67.291 E3.93156
G1 X49.659 Y67.947 E3.95673
G1 X49.659 Y84.503 E4.59032
G1 X49.619 Y85.116 E4.61383
G1 X49.5 Y85.719 E4.63735
G1 X49.303 Y86.301 E4.66087
G1 X49.033 Y86.853 E4.68439
G1 X48.693 Y87.365 E4.70791
G1 X48.29 Y87.829 E4.73143
G1 X47.83 Y88.236 E4.75493
G1 X47.321 Y88.581 E4.77846
G1 X46.772 Y88.856 E4.80196
G1 X46.191 Y89.058 E4.8255
G1 X45.59 Y89.182 E4.84899
G1 X44.934 Y89.228 E4.87415
G1 X35 Y89.228 E5.25433
G1 X34.387 Y89.188 E5.27784
G1 X33.784 Y89.069 E5.30136
G1 X33.202 Y88.872 E5.32487
G1 X32.65 Y88.602 E5.34839
G1 X32.138 Y88.262 E5.37191
G1 X31.674 Y87.859 E5.39543
G1 X31.267 Y87.399 E5.41894
G1 X30.922 Y86.89 E5.44247
G1 X30.647 Y86.341 E5.46597
G1 X30.445 Y85.76 E5.48951
G1 X30.321 Y85.159 E5.51299
G1 X30.275 Y84.503 E5.53816
G1 X30.275 Y67.947 E6.17176
G1 X30.315 Y67.334 E6.19527
G1 X30.434 Y66.731 E6.21879
G1 X30.631 Y66.149 E6.2423
G1 X30.901 Y65.597 E6.26582
G1 X31.241 Y65.085 E6.28934
G1 X31.644 Y64.621 E6.31286
G1 X32.104 Y64.214 E6.33637
G1 X32.547 Y63.913 E6.35686
G0 F1620 X32.613 Y63.869
G0 X33.162 Y63.594
G0 F4320 X32.946 Y64.084
G1 F1800 X33.485 Y63.843 E6.37946
G1 X34.053 Y63.676 E6.40212
G1 X34.637 Y63.587 E6.42472
G1 X35 Y63.572 E6.43863
G1 X44.934 Y63.572 E6.8188
G1 X45.524 Y63.612 E6.84143
G1 X46.103 Y63.731 E6.86405
G1 X46.661 Y63.927 E6.88669
G1 X47.187 Y64.197 E6.90931
G1 X47.672 Y64.535 E6.93194
G1 X48.107 Y64.935 E6.95455
G1 X48.484 Y65.391 E6.9772
G1 X48.797 Y65.893 E6.99984
G1 X49.038 Y66.432 E7.02243
G1 X49.205 Y67 E7.04509
G1 X49.294 Y67.584 E7.0677
G1 X49.309 Y67.947 E7.0816
G1 X49.309 Y84.503 E7.7152
G1 X49.269 Y85.093 E7.73783
G1 X49.15 Y85.672 E7.76045
G1 X48.954 Y86.23 E7.78308
G1 X48.684 Y86.756 E7.80571
G1 X48.346 Y87.241 E7.82833
G1 X47.946 Y87.676 E7.85095
G1 X47.49 Y88.053 E7.87359
G1 X46.988 Y88.366 E7.89623
G1 X46.449 Y88.607 E7.91883
G1 X45.881 Y88.774 E7.94149
G1 X45.297 Y88.863 E7.96409
G1 X44.934 Y88.878 E7.978
G1 X35 Y88.878 E8.35817
G1 X34.41 Y88.838 E8.3808
G1 X33.831 Y88.719 E8.40342
G1 X33.273 Y88.523 E8.42606
G1 X32.747 Y88.253 E8.44868
G1 X32.262 Y87.915 E8.47131
G1 X31.827 Y87.515 E8.49392
G1 X31.45 Y87.059 E8.51657
G1 X31.137 Y86.557 E8.53921
G1 X30.896 Y86.018 E8.5618
G1 X30.729 Y85.45 E8.58446
G1 X30.64 Y84.866 E8.60707
G1 X30.625 Y84.503 E8.62097
G1 X30.625 Y67.947 E9.25457
G1 X30.665 Y67.357 E9.2772
G1 X30.784 Y66.778 E9.29982
G1 X30.98 Y66.22 E9.32245
G1 X31.25 Y65.694 E9.34508
G1 X31.588 Y65.209 E9.36771
G1 X31.988 Y64.774 E9.39032
G1 X32.365 Y64.462 E9.40905
G0 F1620 X32.444 Y64.397
G0 X32.946 Y64.084
G0 F4320 X33.276 Y64.31
G1 F1800 X33.804 Y64.104 E9.43074
G1 X34.356 Y63.974 E9.45244
G1 X35 Y63.922 E9.47717
G1 X44.934 Y63.922 E9.85734
G1 X45.5 Y63.962 E9.87906
G1 X46.054 Y64.081 E9.90074
G1 X46.586 Y64.277 E9.92244
G1 X47.086 Y64.545 E9.94415
G1 X47.542 Y64.882 E9.96585
G1 X47.947 Y65.279 E9.98755
G1 X48.293 Y65.729 E10.00928
G1 X48.571 Y66.223 E10.03097
G1 X48.777 Y66.751 E10.05266
G1 X48.907 Y67.303 E10.07436
G1 X48.959 Y67.947 E10.09909
G1 X48.959 Y84.503 E10.73269
G1 X48.919 Y85.069 E10.7544
G1 X48.8 Y85.623 E10.77609
G1 X48.604 Y86.155 E10.79778
G1 X48.336 Y86.655 E10.81949
G1 X47.999 Y87.111 E10.84119
G1 X47.602 Y87.516 E10.8629
G1 X47.152 Y87.862 E10.88462
G1 X46.658 Y88.14 E10.90631
G1 X46.13 Y88.346 E10.928
G1 X45.578 Y88.476 E10.94971
G1 X44.934 Y88.528 E10.97443
G1 X35 Y88.528 E11.35461
G1 X34.434 Y88.488 E11.37632
G1 X33.88 Y88.369 E11.39801
G1 X33.348 Y88.173 E11.4197
G1 X32.848 Y87.905 E11.44141
G1 X32.392 Y87.568 E11.46311
G1 X31.987 Y87.171 E11.48482
G1 X31.641 Y86.721 E11.50654
G1 X31.363 Y86.227 E11.52823
G1 X31.157 Y85.699 E11.54992
G1 X31.027 Y85.147 E11.57163
G1 X30.975 Y84.503 E11.59635
G1 X30.975 Y67.947 E12.22995
G1 X31.015 Y67.381 E12.25167
G1 X31.134 Y66.827 E12.27335
G1 X31.33 Y66.295 E12.29505
G1 X31.598 Y65.795 E12.31676
G1 X31.935 Y65.339 E12.33846
G1 X32.332 Y64.934 E12.36016
G1 X32.681 Y64.666 E12.377
G0 F1620 X32.782 Y64.588
G0 X33.276 Y64.31
G0 F4320 X33.602 Y64.548
G1 F1800 X34.117 Y64.38 E12.39773
G1 X34.651 Y64.289 E12.41846
G1 X35 Y64.272 E12.43184
G1 X44.934 Y64.272 E12.81201
G1 X45.474 Y64.312 E12.83273
G1 X46.003 Y64.431 E12.85348
G1 X46.508 Y64.626 E12.8742
G1 X46.98 Y64.894 E12.89497
G1 X47.406 Y65.228 E12.91569
G1 X47.779 Y65.621 E12.93642
G1 X48.09 Y66.065 E12.95717
G1 X48.333 Y66.549 E12.9779
G1 X48.501 Y67.064 E12.99863
G1 X48.592 Y67.598 E13.01936
G1 X48.609 Y67.947 E13.03273
G1 X48.609 Y84.503 E13.66633
G1 X48.569 Y85.043 E13.68705
G1 X48.45 Y85.572 E13.7078
G1 X48.255 Y86.077 E13.72852
G1 X47.987 Y86.549 E13.74929
G1 X47.653 Y86.975 E13.77001
G1 X47.26 Y87.348 E13.79074
G1 X46.816 Y87.659 E13.81149
G1 X46.332 Y87.902 E13.83221
G1 X45.817 Y88.07 E13.85294
G1 X45.283 Y88.161 E13.87368
G1 X44.934 Y88.178 E13.88705
G1 X35 Y88.178 E14.26722
G1 X34.46 Y88.138 E14.28794
G1 X33.931 Y88.019 E14.30869
G1 X33.426 Y87.824 E14.32941
G1 X32.954 Y87.556 E14.35018
G1 X32.528 Y87.222 E14.3709
G1 X32.155 Y86.829 E14.39164
G1 X31.844 Y86.385 E14.41238
G1 X31.601 Y85.901 E14.43311
G1 X31.433 Y85.386 E14.45384
G1 X31.342 Y84.852 E14.47457
G1 X31.325 Y84.503 E14.48794
G1 X31.325 Y67.947 E15.12154
G1 X31.365 Y67.407 E15.14226
G1 X31.484 Y66.878 E15.16301
G1 X31.679 Y66.373 E15.18373
G1 X31.947 Y65.901 E15.2045
G1 X32.281 Y65.475 E15.22522
G1 X32.674 Y65.102 E15.24595
G1 X32.993 Y64.878 E15.26087
G0 F1620 X33.118 Y64.791
G0 X33.602 Y64.548
G0 F4320 X33.451 Y65.005
G1 F1800 X33.924 Y64.801 E15.28058
G1 X34.423 Y64.672 E15.30031
G1 X35 Y64.622 E15.32247
G1 X44.934 Y64.622 E15.70265
G1 X45.448 Y64.662 E15.72238
G1 X45.949 Y64.781 E15.74208
G1 X46.426 Y64.976 E15.7618
G1 X46.868 Y65.242 E15.78155
G1 X47.262 Y65.573 E15.80124
G1 X47.601 Y65.962 E15.82099
G1 X47.876 Y66.398 E15.84071
G1 X48.08 Y66.871 E15.86043
G1 X48.209 Y67.37 E15.88015
G1 X48.259 Y67.947 E15.90232
G1 X48.259 Y84.503 E16.53591
G1 X48.219 Y85.017 E16.55564
G1 X48.1 Y85.518 E16.57535
G1 X47.905 Y85.995 E16.59507
G1 X47.639 Y86.437 E16.61481
G1 X47.308 Y86.831 E16.63451
G1 X46.919 Y87.17 E16.65425
G1 X46.483 Y87.445 E16.67398
G1 X46.01 Y87.649 E16.69369
G1 X45.511 Y87.778 E16.71342
G1 X44.934 Y87.828 E16.73558
G1 X35 Y87.828 E17.11576
G1 X34.486 Y87.788 E17.13549
G1 X33.985 Y87.669 E17.15519
G1 X33.508 Y87.474 E17.17492
G1 X33.066 Y87.208 E17.19466
G1 X32.672 Y86.877 E17.21435
G1 X32.333 Y86.488 E17.2341
G1 X32.058 Y86.052 E17.25382
G1 X31.854 Y85.579 E17.27354
G1 X31.725 Y85.08 E17.29326
G1 X31.675 Y84.503 E17.31543
G1 X31.675 Y67.947 E17.94902
G1 X31.715 Y67.433 E17.96875
G1 X31.834 Y66.932 E17.98846
G1 X32.029 Y66.455 E18.00818
G1 X32.295 Y66.013 E18.02792
G1 X32.626 Y65.619 E18.04762
G1 X32.88 Y65.397 E18.06053
G0 F1620 X33.015 Y65.28
G0 X33.451 Y65.005
G0 F4320 X33.78 Y65.234
G1 F1800 X34.239 Y65.071 E18.07917
G1 X35 Y64.972 E18.10854
G1 X44.934 Y64.972 E18.48871
G1 X45.42 Y65.012 E18.50737
G1 X45.893 Y65.131 E18.52604
G1 X46.34 Y65.325 E18.54469
G1 X46.749 Y65.59 E18.56334
G1 X47.109 Y65.918 E18.58198
G1 X47.412 Y66.3 E18.60064
G1 X47.647 Y66.727 E18.61929
G1 X47.81 Y67.186 E18.63793
G1 X47.909 Y67.947 E18.6673
G1 X47.909 Y84.503 E19.30089
G1 X47.869 Y84.989 E19.31956
G1 X47.75 Y85.462 E19.33822
G1 X47.556 Y85.909 E19.35687
G1 X47.291 Y86.318 E19.37552
G1 X46.963 Y86.678 E19.39416
G1 X46.581 Y86.981 E19.41282
G1 X46.154 Y87.216 E19.43147
G1 X45.695 Y87.379 E19.45011
G1 X44.934 Y87.478 E19.47948
G1 X35 Y87.478 E19.85966
G1 X34.514 Y87.438 E19.87832
G1 X34.041 Y87.319 E19.89698
G1 X33.594 Y87.125 E19.91563
G1 X33.185 Y86.86 E19.93428
G1 X32.825 Y86.532 E19.95292
G1 X32.522 Y86.15 E19.97158
G1 X32.287 Y85.723 E19.99023
G1 X32.124 Y85.264 E20.00887
G1 X32.025 Y84.503 E20.03824
G1 X32.025 Y67.947 E20.67184
G1 X32.065 Y67.461 E20.6905
G1 X32.184 Y66.988 E20.70917
G1 X32.378 Y66.541 E20.72782
G1 X32.643 Y66.132 E20.74647
G1 X32.971 Y65.772 E20.7651
G1 X33.191 Y65.597 E20.77586
G0 F1620 X33.353 Y65.469
G0 X33.78 Y65.234
G0 F4320 X33.689 Y65.673
G1 F1800 X34.104 Y65.48 E20.79338
G1 X34.546 Y65.362 E20.81089
G1 X35 Y65.322 E20.82833
G1 X44.934 Y65.322 E21.2085
G1 X45.39 Y65.362 E21.22602
G1 X45.832 Y65.48 E21.24353
G1 X46.247 Y65.674 E21.26106
G1 X46.622 Y65.937 E21.27859
G1 X46.946 Y66.261 E21.29612
G1 X47.208 Y66.636 E21.31363
G1 X47.401 Y67.051 E21.33115
G1 X47.519 Y67.493 E21.34865
G1 X47.559 Y67.947 E21.36609
G1 X47.559 Y84.503 E21.99969
G1 X47.519 Y84.959 E22.01721
G1 X47.401 Y85.401 E22.03472
G1 X47.207 Y85.816 E22.05225
G1 X46.944 Y86.191 E22.06978
G1 X46.62 Y86.515 E22.08731
G1 X46.245 Y86.777 E22.10482
G1 X45.83 Y86.97 E22.12234
G1 X45.388 Y87.088 E22.13984
G1 X44.934 Y87.128 E22.15729
G1 X35 Y87.128 E22.53746
G1 X34.544 Y87.088 E22.55498
G1 X34.102 Y86.97 E22.57249
G1 X33.687 Y86.776 E22.59002
G1 X33.312 Y86.513 E22.60755
G1 X32.988 Y86.189 E22.62508
G1 X32.726 Y85.814 E22.64259
G1 X32.533 Y85.399 E22.6601
G1 X32.415 Y84.957 E22.67761
G1 X32.375 Y84.503 E22.69505
G1 X32.375 Y67.947 E23.32865
G1 X32.415 Y67.491 E23.34617
G1 X32.533 Y67.049 E23.36368
G1 X32.727 Y66.634 E23.38121
G1 X32.99 Y66.259 E23.39874
G1 X33.147 Y66.102 E23.40723
G0 F1620 X33.314 Y65.935
G0 X33.689 Y65.673
G0 F4320 X34.02 Y65.894
G1 F1800 X34.42 Y65.747 E23.42354
G1 X35 Y65.672 E23.44592
G1 X44.934 Y65.672 E23.8261
G1 X45.358 Y65.712 E23.8424
G1 X45.768 Y65.83 E23.85872
G1 X46.148 Y66.023 E23.87503
G1 X46.485 Y66.283 E23.89132
G1 X46.768 Y66.601 E23.90762
G1 X46.987 Y66.967 E23.92394
G1 X47.134 Y67.367 E23.94025
G1 X47.209 Y67.947 E23.96263
G1 X47.209 Y84.503 E24.59623
G1 X47.169 Y84.927 E24.61252
G1 X47.051 Y85.337 E24.62885
G1 X46.858 Y85.717 E24.64516
G1 X46.598 Y86.054 E24.66145
G1 X46.28 Y86.337 E24.67774
G1 X45.914 Y86.556 E24.69407
G1 X45.514 Y86.703 E24.71037
G1 X44.934 Y86.778 E24.73276
G1 X35 Y86.778 E25.11293
G1 X34.576 Y86.738 E25.12923
G1 X34.166 Y86.62 E25.14556
G1 X33.786 Y86.427 E25.16187
G1 X33.449 Y86.167 E25.17816
G1 X33.166 Y85.849 E25.19445
G1 X32.947 Y85.483 E25.21077
G1 X32.8 Y85.083 E25.22708
G1 X32.725 Y84.503 E25.24946
G1 X32.725 Y67.947 E25.88306
G1 X32.765 Y67.523 E25.89936
G1 X32.883 Y67.113 E25.91568
G1 X33.076 Y66.733 E25.93199
G1 X33.336 Y66.396 E25.94828
G1 X33.454 Y66.291 E25.95433
G0 F1620 X33.654 Y66.113
G0 X34.02 Y65.894
G0 F4320 X34.345 Y66.137
G1 F1800 X34.725 Y66.042 E25.96932
G1 X35 Y66.022 E25.97987
G1 X44.934 Y66.022 E26.36004
G1 X45.324 Y66.062 E26.37505
G1 X45.698 Y66.18 E26.39006
G1 X46.04 Y66.371 E26.40505
G1 X46.336 Y66.628 E26.42005
G1 X46.574 Y66.939 E26.43504
G1 X46.744 Y67.292 E26.45003
G1 X46.839 Y67.672 E26.46502
G1 X46.859 Y67.947 E26.47557
G1 X46.859 Y84.503 E27.10917
G1 X46.819 Y84.893 E27.12417
G1 X46.701 Y85.267 E27.13918
G1 X46.51 Y85.609 E27.15417
G1 X46.253 Y85.905 E27.16917
G1 X45.942 Y86.143 E27.18416
G1 X45.589 Y86.313 E27.19916
G1 X45.209 Y86.408 E27.21415
G1 X44.934 Y86.428 E27.2247
G1 X35 Y86.428 E27.60487
G1 X34.61 Y86.388 E27.61988
G1 X34.236 Y86.27 E27.63488
G1 X33.894 Y86.079 E27.64988
G1 X33.598 Y85.822 E27.66488
G1 X33.36 Y85.511 E27.67986
G1 X33.19 Y85.158 E27.69486
G1 X33.095 Y84.778 E27.70985
G1 X33.075 Y84.503 E27.7204
G1 X33.075 Y67.947 E28.354
G1 X33.115 Y67.557 E28.369
G1 X33.233 Y67.183 E28.38401
G1 X33.424 Y66.841 E28.399
G1 X33.681 Y66.545 E28.414
G1 X33.751 Y66.491 E28.41739
G0 F1620 X33.992 Y66.307
G0 X34.345 Y66.137
G0 F4320 X34.324 Y66.524
G1 F1800 X34.66 Y66.409 E28.43098
G1 X35 Y66.372 E28.44407
G1 X44.934 Y66.372 E28.82424
G1 X45.286 Y66.412 E28.8378
G1 X45.62 Y66.529 E28.85134
G1 X45.92 Y66.719 E28.86493
G1 X46.17 Y66.97 E28.87849
G1 X46.357 Y67.271 E28.89205
G1 X46.472 Y67.607 E28.90564
G1 X46.509 Y67.947 E28.91873
G1 X46.509 Y84.503 E29.55233
G1 X46.469 Y84.855 E29.56588
G1 X46.352 Y85.189 E29.57943
G1 X46.162 Y85.489 E29.59302
G1 X45.911 Y85.739 E29.60658
G1 X45.61 Y85.926 E29.62014
G1 X45.274 Y86.041 E29.63373
G1 X44.934 Y86.078 E29.64682
G1 X35 Y86.078 E30.02699
G1 X34.648 Y86.038 E30.04055
G1 X34.314 Y85.921 E30.05409
G1 X34.014 Y85.731 E30.06768
G1 X33.764 Y85.48 E30.08124
G1 X33.577 Y85.179 E30.0948
G1 X33.462 Y84.843 E30.10839
G1 X33.425 Y84.503 E30.12148
G1 X33.425 Y67.947 E30.75508
G1 X33.465 Y67.595 E30.76863
G1 X33.582 Y67.261 E30.78218
G1 X33.772 Y66.961 E30.79577
G1 X33.782 Y66.951 E30.79631
G0 F1620 X34.023 Y66.711
G0 X34.324 Y66.524
G0 F4320 X34.362 Y66.901
G1 F1800 X34.647 Y66.774 E30.80825
G1 X35 Y66.722 E30.82191
G1 X44.934 Y66.722 E31.20208
G1 X45.244 Y66.762 E31.21404
G1 X45.534 Y66.879 E31.22601
G1 X45.784 Y67.065 E31.23793
G1 X45.98 Y67.309 E31.24991
G1 X46.107 Y67.594 E31.26185
G1 X46.159 Y67.947 E31.27551
G1 X46.159 Y84.503 E31.9091
G1 X46.119 Y84.813 E31.92107
G1 X46.002 Y85.103 E31.93303
G1 X45.816 Y85.353 E31.94496
G1 X45.572 Y85.549 E31.95694
G1 X45.287 Y85.676 E31.96888
