;FLAVOR:Marlin
;TIME:2384
;Filament used: 0.976216m
;Layer height: 0.13125
;MINX:39.95
;MINY:30.041
;MINZ:0.263
;MAXX:80.05
;MAXY:89.73
;MAXZ:31.965
;Generated with Cura_SteamEngine 4.13.1
M140 S65
M105
M190 S65
M104 S205
M105
M109 S205
M82 ;absolute extrusion mode
G21;(metric values)
G90;(absolute positioning)
M82;(set extruder to absolute mode)
M107;(start with the fan off)
G28;(Home the printer)
G92 E0;(Reset the extruder to 0)
G0 Z5 E5 F500;(Move up and prime the nozzle)
G0 X-1 Z0;(Move outside the printable area)
G1 Y60 E8 F500;(Draw a priming/wiping line to the rear)
G1 X-1;(Move a little closer to the print area)
G1 Y10 E16 F500;(draw more priming/wiping)
G1 E15 F250;(Small retract)
G92 E0;(Zero the extruder)
G92 E0
G92 E0
G1 F2400 E-2.5
;LAYER_COUNT:245
;LAYER:0
M107
G0 F4320 X42.017 Y60.997 Z0.263
;TYPE:SKIRT
G1 F2400 E0
G1 F1800 X42.544 Y60.639 E0.02438
G1 X43.111 Y60.35 E0.04874
G1 X43.71 Y60.134 E0.07311
G1 X44.332 Y59.995 E0.0975
G1 X45.128 Y59.932 E0.12805
G1 X51.478 Y59.932 E0.37107
G1 X52.114 Y59.972 E0.39546
G1 X52.739 Y60.091 E0.4198
G1 X53.345 Y60.288 E0.44419
G1 X53.921 Y60.559 E0.46855
G1 X54.459 Y60.9 E0.49293
G1 X55.067 Y61.418 E0.5235
G1 X55.17 Y61.521 E0.52907
G1 X55.591 Y61.999 E0.55345
G1 X55.949 Y62.526 E0.57783
G1 X56.238 Y63.093 E0.60218
G1 X56.454 Y63.692 E0.62655
G1 X56.593 Y64.314 E0.65094
G1 X56.656 Y65.11 E0.6815
G1 X56.656 Y75.9 E1.09444
G1 X56.616 Y76.536 E1.11882
G1 X56.497 Y77.161 E1.14317
G1 X56.3 Y77.767 E1.16756
G1 X56.029 Y78.343 E1.19192
G1 X55.688 Y78.881 E1.2163
G1 X55.17 Y79.489 E1.24686
G1 X55.067 Y79.592 E1.25244
G1 X54.589 Y80.013 E1.27681
G1 X54.062 Y80.371 E1.3012
G1 X53.495 Y80.66 E1.32555
G1 X52.896 Y80.876 E1.34992
G1 X52.274 Y81.015 E1.37431
G1 X51.478 Y81.078 E1.40487
G1 X45.128 Y81.078 E1.64788
G1 X44.492 Y81.038 E1.67227
G1 X43.867 Y80.919 E1.69662
G1 X43.261 Y80.722 E1.72101
G1 X42.685 Y80.451 E1.74537
G1 X42.147 Y80.11 E1.76974
G1 X41.539 Y79.592 E1.80031
G1 X41.436 Y79.489 E1.80589
G1 X41.015 Y79.011 E1.83026
G1 X40.657 Y78.484 E1.85464
G1 X40.368 Y77.917 E1.879
G1 X40.152 Y77.318 E1.90337
G1 X40.013 Y76.696 E1.92776
G1 X39.95 Y75.9 E1.95832
G1 X39.95 Y65.11 E2.37125
G1 X39.99 Y64.474 E2.39564
G1 X40.109 Y63.849 E2.41999
G1 X40.306 Y63.243 E2.44437
G1 X40.577 Y62.667 E2.46873
G1 X40.918 Y62.129 E2.49311
G1 X41.436 Y61.521 E2.52368
G1 X41.498 Y61.459 E2.52703
G0 F1620 X41.539 Y61.418
G0 X42.017 Y60.997
G0 F4320 X42.249 Y61.261
G1 F1800 X42.759 Y60.919 E2.55053
G1 X43.31 Y60.646 E2.57407
G1 X43.891 Y60.447 E2.59757
G1 X44.494 Y60.325 E2.62111
G1 X45.128 Y60.282 E2.64543
G1 X51.478 Y60.282 E2.88845
G1 X52.091 Y60.322 E2.91196
G1 X52.694 Y60.441 E2.93548
G1 X53.276 Y60.638 E2.95899
G1 X53.828 Y60.908 E2.98251
G1 X54.34 Y61.248 E3.00603
G1 X54.819 Y61.666 E3.03036
G1 X54.922 Y61.769 E3.03593
G1 X55.327 Y62.231 E3.05945
G1 X55.669 Y62.741 E3.08295
G1 X55.942 Y63.292 E3.10648
G1 X56.141 Y63.873 E3.12998
G1 X56.263 Y64.476 E3.15353
G1 X56.306 Y65.11 E3.17785
G1 X56.306 Y75.9 E3.59078
G1 X56.266 Y76.513 E3.61429
G1 X56.147 Y77.116 E3.63781
G1 X55.95 Y77.698 E3.66132
G1 X55.68 Y78.25 E3.68484
G1 X55.34 Y78.762 E3.70836
G1 X54.922 Y79.241 E3.73269
G1 X54.819 Y79.344 E3.73827
G1 X54.357 Y79.749 E3.76178
G1 X53.847 Y80.091 E3.78528
G1 X53.296 Y80.364 E3.80881
G1 X52.715 Y80.563 E3.83232
G1 X52.112 Y80.685 E3.85586
G1 X51.478 Y80.728 E3.88018
G1 X45.128 Y80.728 E4.12319
G1 X44.515 Y80.688 E4.1467
G1 X43.912 Y80.569 E4.17022
G1 X43.33 Y80.372 E4.19374
G1 X42.778 Y80.102 E4.21725
G1 X42.266 Y79.762 E4.24078
G1 X41.787 Y79.344 E4.26511
G1 X41.684 Y79.241 E4.27068
G1 X41.279 Y78.779 E4.29419
G1 X40.937 Y78.269 E4.31769
G1 X40.664 Y77.718 E4.34123
G1 X40.465 Y77.137 E4.36473
G1 X40.343 Y76.534 E4.38827
G1 X40.3 Y75.9 E4.41259
G1 X40.3 Y65.11 E4.82552
G1 X40.34 Y64.497 E4.84903
G1 X40.459 Y63.894 E4.87256
G1 X40.656 Y63.312 E4.89607
G1 X40.926 Y62.76 E4.91959
G1 X41.266 Y62.248 E4.94311
G1 X41.684 Y61.769 E4.96744
G1 X41.731 Y61.722 E4.96998
G0 F1620 X41.787 Y61.666
G0 X42.249 Y61.261
G0 F4320 X42.48 Y61.525
G1 F1800 X42.974 Y61.199 E4.99263
G1 X43.507 Y60.944 E5.01524
G1 X44.069 Y60.762 E5.03785
G1 X44.651 Y60.658 E5.06048
G1 X45.128 Y60.632 E5.07876
G1 X51.478 Y60.632 E5.32177
G1 X52.068 Y60.672 E5.3444
G1 X52.647 Y60.791 E5.36703
G1 X53.205 Y60.987 E5.38966
G1 X53.731 Y61.257 E5.41229
G1 X54.216 Y61.595 E5.43491
G1 X54.675 Y62.016 E5.45875
G1 X55.063 Y62.462 E5.48137
G1 X55.389 Y62.956 E5.50402
G1 X55.644 Y63.489 E5.52663
G1 X55.826 Y64.051 E5.54924
G1 X55.93 Y64.633 E5.57187
G1 X55.956 Y65.11 E5.59015
G1 X55.956 Y75.9 E6.00308
G1 X55.916 Y76.49 E6.02571
G1 X55.797 Y77.069 E6.04833
G1 X55.601 Y77.627 E6.07097
G1 X55.331 Y78.153 E6.09359
G1 X54.993 Y78.638 E6.11622
G1 X54.572 Y79.097 E6.14005
G1 X54.126 Y79.485 E6.16268
G1 X53.632 Y79.811 E6.18533
G1 X53.099 Y80.066 E6.20794
G1 X52.537 Y80.248 E6.23055
G1 X51.955 Y80.352 E6.25317
G1 X51.478 Y80.378 E6.27145
G1 X45.128 Y80.378 E6.51447
G1 X44.538 Y80.338 E6.5371
G1 X43.959 Y80.219 E6.55972
G1 X43.401 Y80.023 E6.58236
G1 X42.875 Y79.753 E6.60498
G1 X42.39 Y79.415 E6.62761
G1 X41.931 Y78.994 E6.65144
G1 X41.543 Y78.548 E6.67407
G1 X41.217 Y78.054 E6.69672
G1 X40.962 Y77.521 E6.71933
G1 X40.78 Y76.959 E6.74194
G1 X40.676 Y76.377 E6.76456
G1 X40.65 Y75.9 E6.78284
G1 X40.65 Y65.11 E7.19578
G1 X40.69 Y64.52 E7.21841
G1 X40.809 Y63.941 E7.24103
G1 X41.005 Y63.383 E7.26366
G1 X41.275 Y62.857 E7.28629
G1 X41.613 Y62.372 E7.30891
G1 X41.965 Y61.989 E7.32882
G0 F1620 X42.034 Y61.913
G0 X42.48 Y61.525
G0 F4320 X42.71 Y61.789
G1 F1800 X43.186 Y61.481 E7.35052
G1 X43.701 Y61.243 E7.37223
G1 X44.244 Y61.08 E7.39393
G1 X44.805 Y60.995 E7.41564
G1 X45.128 Y60.982 E7.42801
G1 X51.478 Y60.982 E7.67103
G1 X52.044 Y61.022 E7.69274
G1 X52.598 Y61.141 E7.71443
G1 X53.13 Y61.337 E7.73612
G1 X53.63 Y61.605 E7.75783
G1 X54.086 Y61.942 E7.77953
G1 X54.427 Y62.264 E7.79748
G1 X54.799 Y62.692 E7.81918
G1 X55.107 Y63.168 E7.84088
G1 X55.345 Y63.683 E7.86259
G1 X55.508 Y64.226 E7.88429
G1 X55.593 Y64.787 E7.906
G1 X55.606 Y65.11 E7.91838
G1 X55.606 Y75.9 E8.33131
G1 X55.566 Y76.466 E8.35302
G1 X55.447 Y77.02 E8.37471
G1 X55.251 Y77.552 E8.39641
G1 X54.983 Y78.052 E8.41812
G1 X54.646 Y78.508 E8.43982
G1 X54.324 Y78.849 E8.45776
G1 X53.896 Y79.221 E8.47947
G1 X53.42 Y79.529 E8.50116
G1 X52.905 Y79.767 E8.52288
G1 X52.362 Y79.93 E8.54457
G1 X51.801 Y80.015 E8.56629
G1 X51.478 Y80.028 E8.57866
G1 X45.128 Y80.028 E8.82167
G1 X44.562 Y79.988 E8.84339
G1 X44.008 Y79.869 E8.86507
G1 X43.476 Y79.673 E8.88677
G1 X42.976 Y79.405 E8.90848
G1 X42.52 Y79.068 E8.93018
G1 X42.179 Y78.746 E8.94813
G1 X41.807 Y78.318 E8.96983
G1 X41.499 Y77.842 E8.99153
G1 X41.261 Y77.327 E9.01324
G1 X41.098 Y76.784 E9.03494
G1 X41.013 Y76.223 E9.05665
G1 X41 Y75.9 E9.06902
G1 X41 Y65.11 E9.48195
G1 X41.04 Y64.544 E9.50367
G1 X41.159 Y63.99 E9.52535
G1 X41.355 Y63.458 E9.54705
G1 X41.623 Y62.958 E9.56876
G1 X41.96 Y62.502 E9.59046
G1 X42.195 Y62.253 E9.60356
G0 F1620 X42.282 Y62.161
G0 X42.71 Y61.789
G0 F4320 X42.94 Y62.055
G1 F1800 X43.398 Y61.765 E9.62431
G1 X43.893 Y61.546 E9.64502
G1 X44.416 Y61.402 E9.66578
G1 X45.128 Y61.332 E9.69316
G1 X51.478 Y61.332 E9.93618
G1 X52.018 Y61.372 E9.9569
G1 X52.547 Y61.491 E9.97765
G1 X53.052 Y61.686 E9.99837
G1 X53.524 Y61.954 E10.01914
G1 X54.077 Y62.408 E10.04652
G1 X54.18 Y62.511 E10.0521
G1 X54.533 Y62.922 E10.07283
G1 X54.823 Y63.38 E10.09358
G1 X55.042 Y63.875 E10.11429
G1 X55.186 Y64.398 E10.13505
G1 X55.256 Y65.11 E10.16243
G1 X55.256 Y75.9 E10.57536
G1 X55.216 Y76.44 E10.59609
G1 X55.097 Y76.969 E10.61684
G1 X54.902 Y77.474 E10.63755
G1 X54.634 Y77.946 E10.65833
G1 X54.18 Y78.499 E10.68571
G1 X54.077 Y78.602 E10.69128
G1 X53.666 Y78.955 E10.71202
G1 X53.208 Y79.245 E10.73276
G1 X52.713 Y79.464 E10.75348
G1 X52.19 Y79.608 E10.77424
G1 X51.478 Y79.678 E10.80162
G1 X45.128 Y79.678 E11.04463
G1 X44.588 Y79.638 E11.06535
G1 X44.059 Y79.519 E11.0861
G1 X43.554 Y79.324 E11.10682
G1 X43.082 Y79.056 E11.12759
G1 X42.529 Y78.602 E11.15498
G1 X42.426 Y78.499 E11.16055
G1 X42.073 Y78.088 E11.18128
G1 X41.783 Y77.63 E11.20203
G1 X41.564 Y77.135 E11.22274
G1 X41.42 Y76.612 E11.2435
G1 X41.35 Y75.9 E11.27088
G1 X41.35 Y65.11 E11.68382
G1 X41.39 Y64.57 E11.70454
G1 X41.509 Y64.041 E11.72529
G1 X41.704 Y63.536 E11.74601
G1 X41.972 Y63.064 E11.76678
G1 X42.421 Y62.517 E11.79386
G0 F1620 X42.426 Y62.511
G0 X42.529 Y62.408
G0 X42.94 Y62.055
G0 F4320 X43.168 Y62.321
G1 F1800 X43.607 Y62.05 E11.81361
G1 X44.082 Y61.851 E11.83331
G1 X44.583 Y61.727 E11.85307
G1 X45.128 Y61.682 E11.87399
G1 X51.478 Y61.682 E12.11701
G1 X51.992 Y61.722 E12.13674
G1 X52.493 Y61.841 E12.15645
G1 X52.97 Y62.036 E12.17617
G1 X53.412 Y62.302 E12.19591
G1 X53.829 Y62.656 E12.21684
G1 X53.932 Y62.759 E12.22242
G1 X54.267 Y63.15 E12.24212
G1 X54.538 Y63.589 E12.26187
G1 X54.737 Y64.064 E12.28157
G1 X54.861 Y64.565 E12.30133
G1 X54.906 Y65.11 E12.32225
G1 X54.906 Y75.9 E12.73519
G1 X54.866 Y76.414 E12.75492
G1 X54.747 Y76.915 E12.77462
G1 X54.552 Y77.392 E12.79435
G1 X54.286 Y77.834 E12.81409
G1 X53.932 Y78.251 E12.83502
G1 X53.829 Y78.354 E12.8406
G1 X53.438 Y78.689 E12.8603
G1 X52.999 Y78.96 E12.88004
G1 X52.524 Y79.159 E12.89975
G1 X52.023 Y79.283 E12.9195
G1 X51.478 Y79.328 E12.94043
G1 X45.128 Y79.328 E13.18345
G1 X44.614 Y79.288 E13.20318
G1 X44.113 Y79.169 E13.22288
G1 X43.636 Y78.974 E13.24261
G1 X43.194 Y78.708 E13.26235
G1 X42.777 Y78.354 E13.28328
G1 X42.674 Y78.251 E13.28886
G1 X42.339 Y77.86 E13.30856
G1 X42.068 Y77.421 E13.3283
G1 X41.869 Y76.946 E13.34801
G1 X41.745 Y76.445 E13.36776
G1 X41.7 Y75.9 E13.38869
G1 X41.7 Y65.11 E13.80163
G1 X41.74 Y64.596 E13.82136
G1 X41.859 Y64.095 E13.84106
G1 X42.054 Y63.618 E13.86078
G1 X42.32 Y63.176 E13.88053
G1 X42.652 Y62.785 E13.90016
G0 F1620 X42.674 Y62.759
G0 X42.777 Y62.656
G0 X43.168 Y62.321
G0 F4320 X43.396 Y62.588
G1 F1800 X43.814 Y62.338 E13.9188
G1 X44.268 Y62.159 E13.93747
G1 X44.744 Y62.057 E13.9561
G1 X45.128 Y62.032 E13.97083
G1 X51.478 Y62.032 E14.21384
G1 X51.964 Y62.072 E14.2325
G1 X52.437 Y62.191 E14.25117
G1 X52.884 Y62.385 E14.26982
G1 X53.293 Y62.65 E14.28847
G1 X53.685 Y63.006 E14.30873
G1 X54 Y63.378 E14.32739
G1 X54.25 Y63.796 E14.34603
G1 X54.429 Y64.25 E14.36471
G1 X54.531 Y64.726 E14.38334
G1 X54.556 Y65.11 E14.39806
G1 X54.556 Y75.9 E14.81099
G1 X54.516 Y76.386 E14.82966
G1 X54.397 Y76.859 E14.84832
G1 X54.203 Y77.306 E14.86697
G1 X53.938 Y77.715 E14.88562
G1 X53.582 Y78.107 E14.90589
G1 X53.21 Y78.422 E14.92454
G1 X52.792 Y78.672 E14.94318
G1 X52.338 Y78.851 E14.96186
G1 X51.862 Y78.953 E14.98049
G1 X51.478 Y78.978 E14.99521
G1 X45.128 Y78.978 E15.23823
G1 X44.642 Y78.938 E15.25689
G1 X44.169 Y78.819 E15.27556
G1 X43.722 Y78.625 E15.2942
G1 X43.313 Y78.36 E15.31286
G1 X42.921 Y78.004 E15.33312
G1 X42.606 Y77.632 E15.35177
G1 X42.356 Y77.214 E15.37041
G1 X42.177 Y76.76 E15.38909
G1 X42.075 Y76.284 E15.40772
G1 X42.05 Y75.9 E15.42245
G1 X42.05 Y65.11 E15.83538
G1 X42.09 Y64.624 E15.85404
G1 X42.209 Y64.151 E15.87271
G1 X42.403 Y63.704 E15.89136
G1 X42.668 Y63.295 E15.91001
G1 X42.885 Y63.056 E15.92236
G0 F1620 X43.024 Y62.903
G0 X43.396 Y62.588
G0 F4320 X43.623 Y62.857
G1 F1800 X44.019 Y62.628 E15.93987
G1 X44.449 Y62.471 E15.95739
G1 X45.128 Y62.382 E15.98359
G1 X51.478 Y62.382 E16.22661
G1 X51.934 Y62.422 E16.24413
G1 X52.376 Y62.54 E16.26163
G1 X52.791 Y62.734 E16.27917
G1 X53.334 Y63.151 E16.30537
G1 X53.731 Y63.605 E16.32845
G1 X53.96 Y64.001 E16.34595
G1 X54.117 Y64.431 E16.36347
G1 X54.206 Y65.11 E16.38968
G1 X54.206 Y75.9 E16.80261
G1 X54.166 Y76.356 E16.82013
G1 X54.048 Y76.798 E16.83764
G1 X53.854 Y77.213 E16.85517
G1 X53.437 Y77.756 E16.88137
G1 X52.983 Y78.153 E16.90445
G1 X52.587 Y78.382 E16.92196
G1 X52.157 Y78.539 E16.93948
G1 X51.478 Y78.628 E16.96568
G1 X45.128 Y78.628 E17.2087
G1 X44.672 Y78.588 E17.22622
G1 X44.23 Y78.47 E17.24372
G1 X43.815 Y78.276 E17.26126
G1 X43.272 Y77.859 E17.28746
G1 X42.875 Y77.405 E17.31054
G1 X42.646 Y77.009 E17.32804
G1 X42.489 Y76.579 E17.34556
G1 X42.4 Y75.9 E17.37177
G1 X42.4 Y65.11 E17.7847
G1 X42.44 Y64.654 E17.80222
G1 X42.558 Y64.212 E17.81973
G1 X42.752 Y63.797 E17.83726
G1 X43.114 Y63.326 E17.85999
G0 F1620 X43.169 Y63.254
G0 X43.623 Y62.857
G0 F4320 X43.848 Y63.127
G1 F1800 X44.221 Y62.921 E17.8763
G1 X44.626 Y62.788 E17.89262
G1 X45.128 Y62.732 E17.91195
G1 X51.478 Y62.732 E18.15496
G1 X51.902 Y62.772 E18.17126
G1 X52.312 Y62.89 E18.18759
G1 X52.692 Y63.083 E18.2039
G1 X53.087 Y63.398 E18.22323
G1 X53.461 Y63.83 E18.2451
G1 X53.667 Y64.203 E18.26141
G1 X53.8 Y64.608 E18.27772
G1 X53.856 Y65.11 E18.29705
G1 X53.856 Y75.9 E18.70998
G1 X53.816 Y76.324 E18.72628
G1 X53.698 Y76.734 E18.74261
G1 X53.505 Y77.114 E18.75892
G1 X53.19 Y77.509 E18.77826
G1 X52.758 Y77.883 E18.80012
G1 X52.385 Y78.089 E18.81643
G1 X51.98 Y78.222 E18.83274
G1 X51.478 Y78.278 E18.85207
G1 X45.128 Y78.278 E19.09509
G1 X44.704 Y78.238 E19.11139
G1 X44.294 Y78.12 E19.12771
G1 X43.914 Y77.927 E19.14403
G1 X43.519 Y77.612 E19.16336
G1 X43.145 Y77.18 E19.18523
G1 X42.939 Y76.807 E19.20153
G1 X42.806 Y76.402 E19.21785
G1 X42.75 Y75.9 E19.23718
G1 X42.75 Y65.11 E19.65011
G1 X42.79 Y64.686 E19.66641
G1 X42.908 Y64.276 E19.68274
G1 X43.101 Y63.896 E19.69905
G1 X43.34 Y63.597 E19.7137
G0 F1620 X43.416 Y63.501
G0 X43.848 Y63.127
G0 F4320 X44.071 Y63.398
G1 F1800 X44.418 Y63.218 E19.72866
G1 X44.796 Y63.111 E19.74369
G1 X45.128 Y63.082 E19.75645
G1 X51.478 Y63.082 E19.99946
G1 X51.868 Y63.122 E20.01446
G1 X52.242 Y63.24 E20.02947
G1 X52.584 Y63.431 E20.04446
G1 X52.942 Y63.749 E20.06279
G1 X53.19 Y64.053 E20.0778
G1 X53.37 Y64.4 E20.09276
G1 X53.477 Y64.778 E20.1078
G1 X53.506 Y65.11 E20.12055
G1 X53.506 Y75.9 E20.53348
G1 X53.466 Y76.29 E20.54849
G1 X53.348 Y76.664 E20.5635
G1 X53.157 Y77.006 E20.57849
G1 X52.839 Y77.364 E20.59681
G1 X52.535 Y77.612 E20.61183
G1 X52.188 Y77.792 E20.62679
G1 X51.81 Y77.899 E20.64182
G1 X51.478 Y77.928 E20.65457
G1 X45.128 Y77.928 E20.89759
G1 X44.738 Y77.888 E20.91259
G1 X44.364 Y77.77 E20.9276
G1 X44.022 Y77.579 E20.94259
G1 X43.664 Y77.261 E20.96092
G1 X43.416 Y76.957 E20.97593
G1 X43.236 Y76.61 E20.99089
G1 X43.129 Y76.232 E21.00593
G1 X43.1 Y75.9 E21.01868
G1 X43.1 Y65.11 E21.43161
G1 X43.14 Y64.72 E21.44662
G1 X43.258 Y64.346 E21.46162
G1 X43.449 Y64.004 E21.47662
G1 X43.567 Y63.872 E21.48339
G0 F1620 X43.767 Y63.646
G0 X44.071 Y63.398
G0 F4320 X44.292 Y63.672
G1 F1800 X44.611 Y63.519 E21.49693
G1 X45.128 Y63.432 E21.517
G1 X51.478 Y63.432 E21.76001
G1 X51.83 Y63.472 E21.77357
G1 X52.164 Y63.589 E21.78711
G1 X52.592 Y63.893 E21.8072
G1 X52.916 Y64.274 E21.82634
G1 X53.069 Y64.593 E21.83988
G1 X53.156 Y65.11 E21.85995
G1 X53.156 Y75.9 E22.27288
G1 X53.116 Y76.252 E22.28644
G1 X52.999 Y76.586 E22.29998
G1 X52.695 Y77.014 E22.32007
G1 X52.314 Y77.338 E22.33921
G1 X51.995 Y77.491 E22.35275
G1 X51.478 Y77.578 E22.37281
G1 X45.128 Y77.578 E22.61583
G1 X44.776 Y77.538 E22.62939
G1 X44.442 Y77.421 E22.64293
G1 X44.014 Y77.117 E22.66302
G1 X43.69 Y76.736 E22.68216
G1 X43.537 Y76.417 E22.6957
G1 X43.45 Y75.9 E22.71576
G1 X43.45 Y65.11 E23.1287
G1 X43.49 Y64.758 E23.14225
G1 X43.607 Y64.424 E23.1558
G1 X43.799 Y64.154 E23.16848
G0 F1620 X43.911 Y63.996
G0 X44.292 Y63.672
G0 F4320 X44.262 Y64.141
G1 F1800 X44.509 Y63.95 E23.18043
G1 X44.797 Y63.828 E23.1924
G1 X45.128 Y63.782 E23.20519
G1 X51.478 Y63.782 E23.4482
G1 X51.788 Y63.822 E23.46016
G1 X52.078 Y63.939 E23.47213
G1 X52.447 Y64.244 E23.49045
G1 X52.638 Y64.491 E23.5024
G1 X52.76 Y64.779 E23.51437
G1 X52.806 Y65.11 E23.52716
