;FLAVOR:Marlin
;TIME:3360
;Filament used: 2.92275m
;Layer height: 0.2
;MINX:67.2
;MINY:54.121
;MINZ:0.3
;MAXX:132.8
;MAXY:145.65
;MAXZ:48.7
;Generated with Cura_SteamEngine 4.13.1
M140 S60
M105
M190 S60
M104 S200
M105
M109 S200
M82 ;absolute extrusion mode
G21 ;metric values
 G90 ;absolute positioning
 M82 ;set extruder to absolute mode
 M107 ;start with the fan off
 G28 X0 Y0 ;move X/Y to min endstops
 G28 Z0 ;move Z to min endstops
 G1 Z15.0 F120 ;move the platform down 15mm
 G92 E0 ;zero the extruded length
 G1 F200 E6 ;extrude 6 mm of feed stock
 G92 E0 ;zero the extruded length again
 G1 F120 
 ;Put printing message on LCD screen
 M117 Printing...
G92 E0
G92 E0
G1 F1500 E-6.5
;LAYER_COUNT:245
;LAYER:0
M107
G0 F3600 X70.824 Y101.435 Z0.3
;TYPE:SKIRT
G1 F1500 E0
G1 F1800 X71.504 Y101.034 E0.03938
G1 X72.222 Y100.704 E0.07881
G1 X72.969 Y100.449 E0.11819
G1 X73.738 Y100.27 E0.15758
G1 X74.522 Y100.17 E0.19701
G1 X75.117 Y100.147 E0.22672
G1 X84.817 Y100.147 E0.71065
G1 X85.606 Y100.187 E0.75007
G1 X86.386 Y100.306 E0.78943
G1 X87.151 Y100.504 E0.82885
G1 X87.891 Y100.778 E0.86822
G1 X88.6 Y101.126 E0.90763
G1 X89.271 Y101.544 E0.94707
G1 X89.895 Y102.027 E0.98643
G1 X90.332 Y102.432 E1.01616
G1 X90.449 Y102.549 E1.02441
G1 X90.979 Y103.135 E1.06383
G1 X91.446 Y103.771 E1.1032
G1 X91.847 Y104.451 E1.14258
G1 X92.177 Y105.169 E1.18201
G1 X92.432 Y105.916 E1.22139
G1 X92.611 Y106.685 E1.26078
G1 X92.711 Y107.469 E1.30021
G1 X92.734 Y108.064 E1.32992
G1 X92.734 Y124.386 E2.14422
G1 X92.694 Y125.175 E2.18364
G1 X92.575 Y125.955 E2.223
G1 X92.377 Y126.72 E2.26243
G1 X92.103 Y127.46 E2.30179
G1 X91.755 Y128.169 E2.3412
G1 X91.337 Y128.84 E2.38064
G1 X90.854 Y129.464 E2.42001
G1 X90.449 Y129.901 E2.44973
G1 X90.332 Y130.018 E2.45799
G1 X89.746 Y130.548 E2.49741
G1 X89.11 Y131.015 E2.53677
G1 X88.43 Y131.416 E2.57616
G1 X87.712 Y131.746 E2.61558
G1 X86.965 Y132.001 E2.65496
G1 X86.196 Y132.18 E2.69435
G1 X85.412 Y132.28 E2.73378
G1 X84.817 Y132.303 E2.76349
G1 X75.117 Y132.303 E3.24742
G1 X74.328 Y132.263 E3.28684
G1 X73.548 Y132.144 E3.3262
G1 X72.783 Y131.946 E3.36563
G1 X72.043 Y131.672 E3.40499
G1 X71.334 Y131.324 E3.4444
G1 X70.663 Y130.906 E3.48384
G1 X70.039 Y130.423 E3.52321
G1 X69.602 Y130.018 E3.55293
G1 X69.485 Y129.901 E3.56119
G1 X68.955 Y129.315 E3.6006
G1 X68.488 Y128.679 E3.63997
G1 X68.087 Y127.999 E3.67936
G1 X67.757 Y127.281 E3.71878
G1 X67.502 Y126.534 E3.75816
G1 X67.323 Y125.765 E3.79755
G1 X67.223 Y124.981 E3.83698
G1 X67.2 Y124.386 E3.86669
G1 X67.2 Y108.064 E4.681
G1 X67.24 Y107.275 E4.72041
G1 X67.359 Y106.495 E4.75977
G1 X67.557 Y105.73 E4.7992
G1 X67.831 Y104.99 E4.83857
G1 X68.179 Y104.281 E4.87797
G1 X68.597 Y103.61 E4.91741
G1 X69.08 Y102.986 E4.95678
G1 X69.485 Y102.549 E4.9865
G1 X69.602 Y102.432 E4.99476
G1 X70.188 Y101.902 E5.03418
G1 X70.824 Y101.435 E5.07354
G0 F3600 X71.078 Y101.747
G1 F1800 X71.743 Y101.361 E5.1119
G1 X72.445 Y101.046 E5.15029
G1 X73.176 Y100.806 E5.18868
G1 X73.927 Y100.643 E5.22702
G1 X74.692 Y100.559 E5.26541
G1 X75.117 Y100.547 E5.28662
G1 X84.817 Y100.547 E5.77056
G1 X85.585 Y100.587 E5.80893
G1 X86.345 Y100.706 E5.8473
G1 X87.088 Y100.904 E5.88567
G1 X87.807 Y101.178 E5.92405
G1 X88.493 Y101.525 E5.96241
G1 X89.14 Y101.941 E6.00078
G1 X89.74 Y102.422 E6.03915
G1 X90.167 Y102.831 E6.06865
G1 X90.681 Y103.403 E6.10701
G1 X91.134 Y104.025 E6.1454
G1 X91.52 Y104.69 E6.18376
G1 X91.835 Y105.392 E6.22215
G1 X92.075 Y106.123 E6.26054
G1 X92.238 Y106.874 E6.29888
G1 X92.322 Y107.639 E6.33727
G1 X92.334 Y108.064 E6.35848
G1 X92.334 Y124.386 E7.17279
G1 X92.294 Y125.154 E7.21116
G1 X92.175 Y125.914 E7.24954
G1 X91.977 Y126.657 E7.2879
G1 X91.703 Y127.376 E7.32629
G1 X91.356 Y128.062 E7.36464
G1 X90.94 Y128.709 E7.40302
G1 X90.459 Y129.309 E7.44138
G1 X90.05 Y129.736 E7.47088
G1 X89.478 Y130.25 E7.50925
G1 X88.856 Y130.703 E7.54764
G1 X88.191 Y131.089 E7.586
G1 X87.489 Y131.404 E7.62438
G1 X86.758 Y131.644 E7.66277
G1 X86.007 Y131.807 E7.70111
G1 X85.242 Y131.891 E7.7395
G1 X84.817 Y131.903 E7.76072
G1 X75.117 Y131.903 E8.24465
G1 X74.349 Y131.863 E8.28302
G1 X73.589 Y131.744 E8.3214
G1 X72.846 Y131.546 E8.35976
G1 X72.127 Y131.272 E8.39815
G1 X71.441 Y130.925 E8.4365
G1 X70.794 Y130.509 E8.47488
G1 X70.194 Y130.028 E8.51324
G1 X69.767 Y129.619 E8.54274
G1 X69.253 Y129.047 E8.58111
G1 X68.8 Y128.425 E8.6195
G1 X68.414 Y127.76 E8.65786
G1 X68.099 Y127.058 E8.69625
G1 X67.859 Y126.327 E8.73463
G1 X67.696 Y125.576 E8.77297
G1 X67.612 Y124.811 E8.81137
G1 X67.6 Y124.386 E8.83258
G1 X67.6 Y108.064 E9.64689
G1 X67.64 Y107.296 E9.68525
G1 X67.759 Y106.536 E9.72363
G1 X67.957 Y105.793 E9.76199
G1 X68.231 Y105.074 E9.80038
G1 X68.578 Y104.388 E9.83873
G1 X68.994 Y103.741 E9.87711
G1 X69.475 Y103.141 E9.91548
G1 X69.884 Y102.714 E9.94497
G1 X70.456 Y102.2 E9.98334
G1 X71.078 Y101.747 E10.02173
G0 F3600 X71.33 Y102.06
G1 F1800 X71.98 Y101.689 E10.05907
G1 X72.666 Y101.39 E10.0964
G1 X73.38 Y101.166 E10.13374
G1 X74.113 Y101.019 E10.17103
G1 X75.117 Y100.947 E10.22125
G1 X84.817 Y100.947 E10.70519
G1 X85.564 Y100.987 E10.74251
G1 X86.302 Y101.106 E10.7798
G1 X87.024 Y101.304 E10.81715
G1 X87.72 Y101.577 E10.85445
G1 X88.383 Y101.924 E10.89179
G1 X89.006 Y102.339 E10.92913
G1 X89.767 Y102.997 E10.97932
G1 X89.884 Y103.114 E10.98758
G1 X90.384 Y103.671 E11.02492
G1 X90.821 Y104.277 E11.0622
G1 X91.192 Y104.927 E11.09954
G1 X91.491 Y105.613 E11.13687
G1 X91.715 Y106.327 E11.1742
G1 X91.862 Y107.06 E11.2115
G1 X91.934 Y108.064 E11.26172
G1 X91.934 Y124.386 E12.07603
G1 X91.894 Y125.133 E12.11335
G1 X91.775 Y125.871 E12.15064
G1 X91.577 Y126.593 E12.18799
G1 X91.304 Y127.289 E12.22529
G1 X90.957 Y127.952 E12.26263
G1 X90.542 Y128.575 E12.29997
G1 X89.884 Y129.336 E12.35016
G1 X89.767 Y129.453 E12.35842
G1 X89.21 Y129.953 E12.39576
G1 X88.604 Y130.39 E12.43304
G1 X87.954 Y130.761 E12.47038
G1 X87.268 Y131.06 E12.50771
G1 X86.554 Y131.284 E12.54504
G1 X85.821 Y131.431 E12.58234
G1 X84.817 Y131.503 E12.63256
G1 X75.117 Y131.503 E13.11649
G1 X74.37 Y131.463 E13.15382
G1 X73.632 Y131.344 E13.19111
G1 X72.91 Y131.146 E13.22846
G1 X72.214 Y130.873 E13.26576
G1 X71.551 Y130.526 E13.30309
G1 X70.928 Y130.111 E13.34044
G1 X70.167 Y129.453 E13.39063
G1 X70.05 Y129.336 E13.39889
G1 X69.55 Y128.779 E13.43623
G1 X69.113 Y128.173 E13.4735
G1 X68.742 Y127.523 E13.51084
G1 X68.443 Y126.837 E13.54818
G1 X68.219 Y126.123 E13.58551
G1 X68.072 Y125.39 E13.62281
G1 X68 Y124.386 E13.67303
G1 X68 Y108.064 E14.48733
G1 X68.04 Y107.317 E14.52466
G1 X68.159 Y106.579 E14.56195
G1 X68.357 Y105.857 E14.5993
G1 X68.63 Y105.161 E14.6366
G1 X68.977 Y104.498 E14.67393
G1 X69.392 Y103.875 E14.71128
G1 X70.05 Y103.114 E14.76147
G1 X70.167 Y102.997 E14.76973
G1 X70.724 Y102.497 E14.80707
G1 X71.33 Y102.06 E14.84434
G0 F3600 X71.582 Y102.373
G1 F1800 X72.216 Y102.019 E14.88057
G1 X72.885 Y101.736 E14.91681
G1 X73.581 Y101.528 E14.95305
G1 X74.296 Y101.398 E14.98931
G1 X75.117 Y101.347 E15.03035
G1 X84.817 Y101.347 E15.51428
G1 X85.542 Y101.387 E15.55051
G1 X86.259 Y101.506 E15.58677
G1 X86.958 Y101.704 E15.62301
G1 X87.631 Y101.977 E15.65925
G1 X88.27 Y102.322 E15.69547
G1 X88.867 Y102.736 E15.73172
G1 X89.484 Y103.28 E15.77276
G1 X89.601 Y103.397 E15.78101
G1 X90.085 Y103.938 E15.81723
G1 X90.508 Y104.529 E15.85349
G1 X90.862 Y105.163 E15.88972
G1 X91.145 Y105.832 E15.92596
G1 X91.353 Y106.528 E15.9622
G1 X91.483 Y107.243 E15.99845
G1 X91.534 Y108.064 E16.03949
G1 X91.534 Y124.386 E16.8538
G1 X91.494 Y125.111 E16.89002
G1 X91.375 Y125.828 E16.92629
G1 X91.177 Y126.527 E16.96253
G1 X90.904 Y127.2 E16.99876
G1 X90.559 Y127.839 E17.03499
G1 X90.145 Y128.436 E17.07124
G1 X89.601 Y129.053 E17.11228
G1 X89.484 Y129.17 E17.12053
G1 X88.943 Y129.654 E17.15675
G1 X88.352 Y130.077 E17.19301
G1 X87.718 Y130.431 E17.22923
G1 X87.049 Y130.714 E17.26547
G1 X86.353 Y130.922 E17.30172
G1 X85.638 Y131.052 E17.33797
G1 X84.817 Y131.103 E17.37901
G1 X75.117 Y131.103 E17.86295
G1 X74.392 Y131.063 E17.89917
G1 X73.675 Y130.944 E17.93543
G1 X72.976 Y130.746 E17.97168
G1 X72.303 Y130.473 E18.00791
G1 X71.664 Y130.128 E18.04414
G1 X71.067 Y129.714 E18.08038
G1 X70.45 Y129.17 E18.12142
G1 X70.333 Y129.053 E18.12968
G1 X69.849 Y128.512 E18.16589
G1 X69.426 Y127.921 E18.20215
G1 X69.072 Y127.287 E18.23838
G1 X68.789 Y126.618 E18.27462
G1 X68.581 Y125.922 E18.31086
G1 X68.451 Y125.207 E18.34712
G1 X68.4 Y124.386 E18.38816
G1 X68.4 Y108.064 E19.20246
G1 X68.44 Y107.339 E19.23869
G1 X68.559 Y106.622 E19.27495
G1 X68.757 Y105.923 E19.3112
G1 X69.03 Y105.25 E19.34743
G1 X69.375 Y104.611 E19.38366
G1 X69.789 Y104.014 E19.4199
G1 X70.333 Y103.397 E19.46094
G1 X70.45 Y103.28 E19.4692
G1 X70.991 Y102.796 E19.50541
G1 X71.582 Y102.373 E19.54167
G0 F3600 X71.833 Y102.688
G1 F1800 X72.451 Y102.35 E19.57681
G1 X73.102 Y102.083 E19.61192
G1 X73.78 Y101.893 E19.64705
G1 X74.475 Y101.78 E19.68218
G1 X75.117 Y101.747 E19.71425
G1 X84.817 Y101.747 E20.19818
G1 X85.52 Y101.787 E20.23331
G1 X86.214 Y101.906 E20.26844
G1 X86.889 Y102.104 E20.30354
G1 X87.538 Y102.376 E20.33864
G1 X88.152 Y102.721 E20.37378
G1 X88.723 Y103.132 E20.40888
G1 X89.201 Y103.563 E20.44099
G1 X89.318 Y103.68 E20.44924
G1 X89.787 Y104.205 E20.48437
G1 X90.193 Y104.78 E20.51948
G1 X90.531 Y105.398 E20.55463
G1 X90.798 Y106.049 E20.58973
G1 X90.988 Y106.727 E20.62486
G1 X91.101 Y107.422 E20.65999
G1 X91.134 Y108.064 E20.69206
G1 X91.134 Y124.386 E21.50637
G1 X91.094 Y125.089 E21.5415
G1 X90.975 Y125.783 E21.57663
G1 X90.777 Y126.458 E21.61172
G1 X90.505 Y127.107 E21.64683
G1 X90.16 Y127.721 E21.68197
G1 X89.749 Y128.292 E21.71706
G1 X89.318 Y128.77 E21.74918
G1 X89.201 Y128.887 E21.75743
G1 X88.676 Y129.356 E21.79255
G1 X88.101 Y129.762 E21.82767
G1 X87.483 Y130.1 E21.86281
G1 X86.832 Y130.367 E21.89792
G1 X86.154 Y130.557 E21.93304
G1 X85.459 Y130.67 E21.96817
G1 X84.817 Y130.703 E22.00024
G1 X75.117 Y130.703 E22.48418
G1 X74.414 Y130.663 E22.51931
G1 X73.72 Y130.544 E22.55444
G1 X73.045 Y130.346 E22.58953
G1 X72.396 Y130.074 E22.62464
G1 X71.782 Y129.729 E22.65978
G1 X71.211 Y129.318 E22.69488
G1 X70.733 Y128.887 E22.72699
G1 X70.616 Y128.77 E22.73524
G1 X70.147 Y128.245 E22.77036
G1 X69.741 Y127.67 E22.80548
G1 X69.403 Y127.052 E22.84062
G1 X69.136 Y126.401 E22.87573
G1 X68.946 Y125.723 E22.91086
G1 X68.833 Y125.028 E22.94599
G1 X68.8 Y124.386 E22.97806
G1 X68.8 Y108.064 E23.79236
G1 X68.84 Y107.361 E23.82749
G1 X68.959 Y106.667 E23.86262
G1 X69.157 Y105.992 E23.89772
G1 X69.429 Y105.343 E23.93283
G1 X69.774 Y104.729 E23.96796
G1 X70.185 Y104.158 E24.00306
G1 X70.616 Y103.68 E24.03517
G1 X70.733 Y103.563 E24.04343
G1 X71.258 Y103.094 E24.07855
G1 X71.833 Y102.688 E24.11367
G0 F3600 X72.083 Y103.004
G1 F1800 X72.683 Y102.682 E24.14764
G1 X73.317 Y102.433 E24.18162
G1 X73.976 Y102.26 E24.21561
G1 X74.65 Y102.166 E24.24956
G1 X75.117 Y102.147 E24.27288
G1 X84.817 Y102.147 E24.75682
G1 X85.497 Y102.187 E24.7908
G1 X86.167 Y102.306 E24.82475
G1 X86.819 Y102.503 E24.85873
G1 X87.443 Y102.775 E24.89269
G1 X88.031 Y103.119 E24.92668
G1 X88.575 Y103.529 E24.96066
G1 X89.035 Y103.963 E24.99222
G1 X89.488 Y104.472 E25.02621
G1 X89.877 Y105.03 E25.06015
G1 X90.199 Y105.63 E25.09412
G1 X90.448 Y106.264 E25.1281
G1 X90.621 Y106.923 E25.16209
G1 X90.715 Y107.597 E25.19604
G1 X90.734 Y108.064 E25.21936
G1 X90.734 Y124.386 E26.03367
G1 X90.694 Y125.066 E26.06765
G1 X90.575 Y125.736 E26.1016
G1 X90.378 Y126.388 E26.13558
G1 X90.106 Y127.012 E26.16955
G1 X89.762 Y127.6 E26.20353
G1 X89.352 Y128.144 E26.23752
G1 X88.918 Y128.604 E26.26907
G1 X88.409 Y129.057 E26.30306
G1 X87.851 Y129.446 E26.337
G1 X87.251 Y129.768 E26.37097
G1 X86.617 Y130.017 E26.40495
G1 X85.958 Y130.19 E26.43895
G1 X85.284 Y130.284 E26.4729
G1 X84.817 Y130.303 E26.49622
G1 X75.117 Y130.303 E26.98015
G1 X74.437 Y130.263 E27.01413
G1 X73.767 Y130.144 E27.04808
G1 X73.115 Y129.947 E27.08206
G1 X72.491 Y129.675 E27.11603
G1 X71.903 Y129.331 E27.15001
G1 X71.359 Y128.921 E27.184
G1 X70.899 Y128.487 E27.21555
G1 X70.446 Y127.978 E27.24954
G1 X70.057 Y127.42 E27.28348
G1 X69.735 Y126.82 E27.31745
G1 X69.486 Y126.186 E27.35143
G1 X69.313 Y125.527 E27.38543
G1 X69.219 Y124.853 E27.41938
G1 X69.2 Y124.386 E27.4427
G1 X69.2 Y108.064 E28.257
G1 X69.24 Y107.384 E28.29099
G1 X69.359 Y106.714 E28.32494
G1 X69.556 Y106.062 E28.35892
G1 X69.828 Y105.438 E28.39288
G1 X70.172 Y104.85 E28.42687
G1 X70.582 Y104.306 E28.46085
G1 X71.016 Y103.846 E28.4924
G1 X71.525 Y103.393 E28.5264
G1 X72.083 Y103.004 E28.56033
G0 F3600 X72.332 Y103.321
G1 F1800 X72.914 Y103.017 E28.59309
G1 X73.529 Y102.786 E28.62587
G1 X74.168 Y102.631 E28.65867
G1 X75.117 Y102.547 E28.7062
G1 X84.817 Y102.547 E29.19014
G1 X85.473 Y102.587 E29.22293
G1 X86.119 Y102.706 E29.2557
G1 X86.746 Y102.903 E29.28849
G1 X87.344 Y103.175 E29.32126
G1 X87.905 Y103.517 E29.35404
G1 X88.635 Y104.129 E29.40157
G1 X88.752 Y104.246 E29.40982
G1 X89.188 Y104.738 E29.44262
G1 X89.56 Y105.279 E29.47537
G1 X89.864 Y105.861 E29.50813
G1 X90.095 Y106.476 E29.54091
G1 X90.25 Y107.115 E29.57371
G1 X90.334 Y108.064 E29.62124
G1 X90.334 Y124.386 E30.43555
G1 X90.294 Y125.042 E30.46834
G1 X90.175 Y125.688 E30.50111
G1 X89.978 Y126.315 E30.5339
G1 X89.706 Y126.913 E30.56668
G1 X89.364 Y127.474 E30.59945
G1 X88.752 Y128.204 E30.64698
G1 X88.635 Y128.321 E30.65523
G1 X88.143 Y128.757 E30.68803
G1 X87.602 Y129.129 E30.72079
G1 X87.02 Y129.433 E30.75355
G1 X86.405 Y129.664 E30.78632
G1 X85.766 Y129.819 E30.81913
G1 X84.817 Y129.903 E30.86666
G1 X75.117 Y129.903 E31.35059
G1 X74.461 Y129.863 E31.38338
G1 X73.815 Y129.744 E31.41615
G1 X73.188 Y129.547 E31.44894
G1 X72.59 Y129.275 E31.48172
G1 X72.029 Y128.933 E31.5145
G1 X71.299 Y128.321 E31.56202
G1 X71.182 Y128.204 E31.57028
G1 X70.746 Y127.712 E31.60307
G1 X70.374 Y127.171 E31.63583
G1 X70.07 Y126.589 E31.66859
G1 X69.839 Y125.974 E31.70136
G1 X69.684 Y125.335 E31.73417
G1 X69.6 Y124.386 E31.7817
G1 X69.6 Y108.064 E32.59601
G1 X69.64 Y107.408 E32.62879
G1 X69.759 Y106.762 E32.66157
G1 X69.956 Y106.135 E32.69435
G1 X70.228 Y105.537 E32.72713
G1 X70.57 Y104.976 E32.75991
G1 X71.182 Y104.246 E32.80743
G1 X71.299 Y104.129 E32.81569
G1 X71.791 Y103.693 E32.84849
G1 X72.332 Y103.321 E32.88124
G0 F3600 X72.579 Y103.639
G1 F1800 X73.143 Y103.353 E32.91279
G1 X73.738 Y103.141 E32.9443
G1 X74.356 Y103.005 E32.97587
G1 X75.117 Y102.947 E33.01395
G1 X84.817 Y102.947 E33.49789
G1 X85.448 Y102.987 E33.52943
G1 X86.069 Y103.106 E33.56098
G1 X86.669 Y103.303 E33.59248
G1 X87.241 Y103.574 E33.62406
G1 X87.773 Y103.914 E33.65556
G1 X88.353 Y104.411 E33.69367
G1 X88.47 Y104.528 E33.70192
G1 X88.887 Y105.003 E33.73345
G1 X89.242 Y105.526 E33.76499
G1 X89.528 Y106.09 E33.79654
G1 X89.74 Y106.685 E33.82805
G1 X89.876 Y107.303 E33.85962
G1 X89.934 Y108.064 E33.8977
G1 X89.934 Y124.386 E34.71201
G1 X89.894 Y125.017 E34.74355
G1 X89.775 Y125.638 E34.7751
G1 X89.578 Y126.238 E34.8066
G1 X89.307 Y126.81 E34.83818
G1 X88.967 Y127.342 E34.86968
G1 X88.47 Y127.922 E34.90779
G1 X88.353 Y128.039 E34.91604
G1 X87.878 Y128.456 E34.94757
G1 X87.355 Y128.811 E34.97911
G1 X86.791 Y129.097 E35.01066
G1 X86.196 Y129.309 E35.04217
G1 X85.578 Y129.445 E35.07374
G1 X84.817 Y129.503 E35.11182
G1 X75.117 Y129.503 E35.59575
G1 X74.486 Y129.463 E35.6273
G1 X73.865 Y129.344 E35.65884
G1 X73.265 Y129.147 E35.69035
G1 X72.693 Y128.876 E35.72193
G1 X72.161 Y128.536 E35.75343
G1 X71.581 Y128.039 E35.79153
G1 X71.464 Y127.922 E35.79979
G1 X71.047 Y127.447 E35.83132
G1 X70.692 Y126.924 E35.86286
G1 X70.406 Y126.36 E35.89441
G1 X70.194 Y125.765 E35.92592
