;FLAVOR:Marlin
;TIME:2511
;Filament used: 1.95042m
;Layer height: 0.15
;MINX:72.2
;MINY:60.467
;MINZ:0.3
;MAXX:127.8
;MAXY:139.519
;MAXZ:13.35
;Generated with Cura_SteamEngine 4.13.1
M140 S60
M105
M190 S60
M104 S200
M105
M109 S200
M82 ;absolute extrusion mode
G21 ;metric values
 G90 ;absolute positioning
 M82 ;set extruder to absolute mode
 M107 ;start with the fan off
 G28 X0 Y0 ;move X/Y to min endstops
 G28 Z0 ;move Z to min endstops
 G1 Z15.0 F120 ;move the platform down 15mm
 G92 E0 ;zero the extruded length
 G1 F200 E6 ;extrude 6 mm of feed stock
 G92 E0 ;zero the extruded length again
 G1 F120 
 ;Put printing message on LCD screen
 M117 Printing...
G92 E0
G92 E0
G1 F1500 E-6.5
;LAYER_COUNT:88
;LAYER:0
M107
G0 F3600 X75.188 Y86.222 Z0.3
;TYPE:SKIRT
G1 F1500 E0
G1 F1800 X75.824 Y85.755 E0.03937
G1 X76.504 Y85.354 E0.07875
G1 X77.222 Y85.024 E0.11817
G1 X77.969 Y84.769 E0.15755
G1 X78.738 Y84.59 E0.19694
G1 X79.522 Y84.49 E0.23638
G1 X80.117 Y84.467 E0.26608
G1 X87.883 Y84.467 E0.65353
G1 X88.672 Y84.507 E0.69294
G1 X89.452 Y84.626 E0.73231
G1 X90.217 Y84.824 E0.77173
G1 X90.957 Y85.098 E0.8111
G1 X91.106 Y85.171 E0.81938
G1 X91.224 Y84.716 E0.84283
G1 X91.498 Y83.976 E0.8822
G1 X91.846 Y83.267 E0.9216
G1 X92.264 Y82.596 E0.96104
G1 X92.747 Y81.972 E1.00041
G1 X93.152 Y81.535 E1.03013
G1 X93.269 Y81.418 E1.03839
G1 X93.855 Y80.888 E1.07781
G1 X94.491 Y80.421 E1.11717
G1 X95.171 Y80.02 E1.15656
G1 X95.889 Y79.69 E1.19598
G1 X96.636 Y79.435 E1.23536
G1 X97.405 Y79.256 E1.27475
G1 X98.189 Y79.156 E1.31418
G1 X98.784 Y79.133 E1.34389
G1 X98.867 Y79.133 E1.34803
G1 X98.867 Y68.384 E1.8843
G1 X98.907 Y67.595 E1.92372
G1 X99.026 Y66.815 E1.96308
G1 X99.224 Y66.05 E2.0025
G1 X99.498 Y65.31 E2.04187
G1 X99.846 Y64.601 E2.08128
G1 X100.264 Y63.93 E2.12072
G1 X100.747 Y63.306 E2.16008
G1 X101.152 Y62.869 E2.18981
G1 X101.269 Y62.752 E2.19806
G1 X101.855 Y62.222 E2.23748
G1 X102.491 Y61.755 E2.27685
G1 X103.171 Y61.354 E2.31623
G1 X103.889 Y61.024 E2.35566
G1 X104.636 Y60.769 E2.39504
G1 X105.405 Y60.59 E2.43443
G1 X106.189 Y60.49 E2.47386
G1 X106.784 Y60.467 E2.50357
G1 X111.883 Y60.467 E2.75796
G1 X112.672 Y60.507 E2.79737
G1 X113.452 Y60.626 E2.83673
G1 X114.217 Y60.824 E2.87616
G1 X114.957 Y61.098 E2.91553
G1 X115.666 Y61.446 E2.95493
G1 X116.337 Y61.864 E2.99437
G1 X116.961 Y62.347 E3.03374
G1 X117.398 Y62.752 E3.06346
G1 X117.515 Y62.869 E3.07172
G1 X118.045 Y63.455 E3.11114
G1 X118.512 Y64.091 E3.1505
G1 X118.913 Y64.771 E3.18989
G1 X119.243 Y65.489 E3.22931
G1 X119.498 Y66.236 E3.26869
G1 X119.677 Y67.005 E3.30808
G1 X119.777 Y67.789 E3.34751
G1 X119.8 Y68.384 E3.37722
G1 X119.8 Y79.133 E3.91349
G1 X119.883 Y79.133 E3.91763
G1 X120.672 Y79.173 E3.95704
G1 X121.452 Y79.292 E3.99641
G1 X122.217 Y79.49 E4.03583
G1 X122.957 Y79.764 E4.0752
G1 X123.666 Y80.112 E4.1146
G1 X124.337 Y80.53 E4.15404
G1 X124.961 Y81.013 E4.19341
G1 X125.398 Y81.418 E4.22314
G1 X125.515 Y81.535 E4.23139
G1 X126.045 Y82.121 E4.27081
G1 X126.512 Y82.757 E4.31018
G1 X126.913 Y83.437 E4.34956
G1 X127.243 Y84.155 E4.38899
G1 X127.498 Y84.902 E4.42837
G1 X127.677 Y85.671 E4.46776
G1 X127.777 Y86.455 E4.50719
G1 X127.8 Y87.05 E4.53689
G1 X127.8 Y92.15 E4.79133
G1 X127.76 Y92.939 E4.83075
G1 X127.641 Y93.719 E4.87011
G1 X127.443 Y94.484 E4.90954
G1 X127.169 Y95.224 E4.94891
G1 X126.821 Y95.933 E4.98831
G1 X126.403 Y96.604 E5.02775
G1 X125.92 Y97.228 E5.06712
G1 X125.515 Y97.665 E5.09684
G1 X125.398 Y97.782 E5.1051
G1 X124.812 Y98.312 E5.14452
G1 X124.176 Y98.779 E5.18388
G1 X123.496 Y99.18 E5.22327
G1 X122.778 Y99.51 E5.26269
G1 X122.467 Y99.616 E5.27908
G1 X122.467 Y119.444 E6.26831
G1 X122.427 Y120.233 E6.30772
G1 X122.234 Y121.336 E6.36358
G1 X122.223 Y121.38 E6.36585
G1 X121.993 Y122.135 E6.40522
G1 X121.558 Y123.121 E6.45899
G1 X116.356 Y133.004 E7.01619
G1 X115.954 Y133.683 E7.05555
G1 X115.484 Y134.318 E7.09497
G1 X114.953 Y134.903 E7.13438
G1 X114.366 Y135.43 E7.17374
G1 X113.728 Y135.896 E7.21316
G1 X113.046 Y136.295 E7.25258
G1 X112.328 Y136.622 E7.29194
G1 X111.58 Y136.876 E7.33135
G1 X110.81 Y137.052 E7.37076
G1 X110.026 Y137.15 E7.41017
G1 X109.454 Y137.171 E7.43873
G1 X109.212 Y137.171 E7.4508
G1 X108.423 Y137.131 E7.49022
G1 X107.643 Y137.012 E7.52958
G1 X106.878 Y136.814 E7.56901
G1 X106.138 Y136.54 E7.60837
G1 X105.429 Y136.192 E7.64778
G1 X104.758 Y135.774 E7.68722
G1 X104.134 Y135.291 E7.72659
G1 X103.561 Y134.748 E7.76597
G1 X103.046 Y134.149 E7.80538
G1 X102.595 Y133.501 E7.84477
G1 X102.309 Y133.004 E7.87338
G1 X97.108 Y123.121 E8.43055
G1 X96.777 Y122.404 E8.46995
G1 X96.444 Y121.38 E8.52367
G1 X96.433 Y121.336 E8.52593
G1 X96.28 Y120.561 E8.56534
G1 X96.2 Y119.444 E8.62121
G1 X96.2 Y99.617 E9.61039
G1 X95.8 Y99.469 E9.63167
G1 X95.8 Y121.145 E10.71309
G1 X95.76 Y121.934 E10.7525
G1 X95.641 Y122.714 E10.79186
G1 X95.443 Y123.479 E10.83129
G1 X95.169 Y124.219 E10.87066
G1 X94.821 Y124.928 E10.91006
G1 X94.651 Y125.202 E10.92615
G1 X94.879 Y125.581 E10.94821
G1 X95.216 Y126.296 E10.98765
G1 X95.478 Y127.041 E11.02705
G1 X95.664 Y127.808 E11.06642
G1 X95.771 Y128.59 E11.1058
G1 X95.8 Y129.258 E11.13916
G1 X95.8 Y131.602 E11.2561
G1 X95.76 Y132.391 E11.29551
G1 X95.641 Y133.171 E11.33488
G1 X95.443 Y133.936 E11.3743
G1 X95.169 Y134.676 E11.41367
G1 X94.821 Y135.385 E11.45307
G1 X94.403 Y136.056 E11.49252
G1 X93.92 Y136.68 E11.53188
G1 X93.515 Y137.117 E11.56161
G1 X93.398 Y137.234 E11.56986
G1 X92.812 Y137.764 E11.60928
G1 X92.176 Y138.231 E11.64865
G1 X91.496 Y138.632 E11.68803
G1 X90.778 Y138.962 E11.72746
G1 X90.031 Y139.217 E11.76684
G1 X89.262 Y139.396 E11.80623
G1 X88.478 Y139.496 E11.84566
G1 X87.883 Y139.519 E11.87536
G1 X80.117 Y139.519 E12.26281
G1 X79.328 Y139.479 E12.30223
G1 X78.548 Y139.36 E12.34159
G1 X77.783 Y139.162 E12.38101
G1 X77.043 Y138.888 E12.42038
G1 X76.334 Y138.54 E12.45979
G1 X75.663 Y138.122 E12.49923
G1 X75.039 Y137.639 E12.53859
G1 X74.602 Y137.234 E12.56832
G1 X74.485 Y137.117 E12.57657
G1 X73.955 Y136.531 E12.61599
G1 X73.488 Y135.895 E12.65536
G1 X73.087 Y135.215 E12.69474
G1 X72.757 Y134.497 E12.73417
G1 X72.502 Y133.75 E12.77355
G1 X72.323 Y132.981 E12.81294
G1 X72.223 Y132.197 E12.85237
G1 X72.2 Y131.602 E12.88208
G1 X72.2 Y129.256 E12.99912
G1 X72.24 Y128.467 E13.03853
G1 X72.359 Y127.687 E13.0779
G1 X72.557 Y126.922 E13.11732
G1 X72.831 Y126.182 E13.15669
G1 X73.179 Y125.473 E13.19609
G1 X73.348 Y125.201 E13.21207
G1 X73.087 Y124.758 E13.23772
G1 X72.757 Y124.04 E13.27714
G1 X72.502 Y123.293 E13.31652
G1 X72.323 Y122.524 E13.35592
G1 X72.223 Y121.74 E13.39535
G1 X72.2 Y121.145 E13.42505
G1 X72.2 Y92.384 E14.85994
G1 X72.24 Y91.595 E14.89936
G1 X72.359 Y90.815 E14.93872
G1 X72.557 Y90.05 E14.97815
G1 X72.831 Y89.31 E15.01752
G1 X73.179 Y88.601 E15.05692
G1 X73.597 Y87.93 E15.09636
G1 X74.08 Y87.306 E15.13573
G1 X74.485 Y86.869 E15.16545
G1 X74.602 Y86.752 E15.17371
G1 X75.188 Y86.222 E15.21313
G0 F3600 X75.456 Y86.52
G1 F1800 X76.078 Y86.067 E15.25152
G1 X76.743 Y85.681 E15.28988
G1 X77.445 Y85.366 E15.32826
G1 X78.176 Y85.126 E15.36665
G1 X78.927 Y84.963 E15.40499
G1 X79.692 Y84.879 E15.44338
G1 X80.117 Y84.867 E15.4646
G1 X87.883 Y84.867 E15.85204
G1 X88.651 Y84.907 E15.89041
G1 X89.411 Y85.026 E15.92879
G1 X90.154 Y85.224 E15.96715
G1 X90.873 Y85.498 E16.00554
G1 X91.389 Y85.759 E16.03439
G1 X91.426 Y85.522 E16.04636
G1 X91.624 Y84.779 E16.08472
G1 X91.898 Y84.06 E16.12311
G1 X92.245 Y83.374 E16.16146
G1 X92.661 Y82.727 E16.19983
G1 X93.142 Y82.127 E16.2382
G1 X93.551 Y81.7 E16.2677
G1 X94.123 Y81.186 E16.30607
G1 X94.745 Y80.733 E16.34445
G1 X95.41 Y80.347 E16.38282
G1 X96.112 Y80.032 E16.4212
G1 X96.843 Y79.792 E16.45959
G1 X97.594 Y79.629 E16.49793
G1 X98.359 Y79.545 E16.53632
G1 X99.267 Y79.533 E16.58163
G1 X99.267 Y68.384 E17.13785
G1 X99.307 Y67.616 E17.17622
G1 X99.426 Y66.856 E17.2146
G1 X99.624 Y66.113 E17.25296
G1 X99.898 Y65.394 E17.29135
G1 X100.245 Y64.708 E17.3297
G1 X100.661 Y64.061 E17.36808
G1 X101.142 Y63.461 E17.40644
G1 X101.551 Y63.034 E17.43594
G1 X102.123 Y62.52 E17.47431
G1 X102.745 Y62.067 E17.5127
G1 X103.41 Y61.681 E17.55106
G1 X104.112 Y61.366 E17.58945
G1 X104.843 Y61.126 E17.62783
G1 X105.594 Y60.963 E17.66617
G1 X106.359 Y60.879 E17.70457
G1 X106.784 Y60.867 E17.72578
G1 X111.883 Y60.867 E17.98017
G1 X112.651 Y60.907 E18.01854
G1 X113.411 Y61.026 E18.05692
G1 X114.154 Y61.224 E18.09528
G1 X114.873 Y61.498 E18.13366
G1 X115.559 Y61.845 E18.17202
G1 X116.206 Y62.261 E18.21039
G1 X116.806 Y62.742 E18.24876
G1 X117.233 Y63.151 E18.27826
G1 X117.747 Y63.723 E18.31663
G1 X118.2 Y64.345 E18.35501
G1 X118.586 Y65.01 E18.39338
G1 X118.901 Y65.712 E18.43176
G1 X119.141 Y66.443 E18.47015
G1 X119.304 Y67.194 E18.50849
G1 X119.388 Y67.959 E18.54688
G1 X119.4 Y68.384 E18.56809
G1 X119.4 Y79.533 E19.12432
G1 X119.883 Y79.533 E19.14842
G1 X120.651 Y79.573 E19.18679
G1 X121.411 Y79.692 E19.22516
G1 X122.154 Y79.89 E19.26353
G1 X122.873 Y80.164 E19.30191
G1 X123.559 Y80.511 E19.34027
G1 X124.206 Y80.927 E19.37864
G1 X124.806 Y81.408 E19.41701
G1 X125.233 Y81.817 E19.44651
G1 X125.747 Y82.389 E19.48487
G1 X126.2 Y83.011 E19.52326
G1 X126.586 Y83.676 E19.56162
G1 X126.901 Y84.378 E19.60001
G1 X127.141 Y85.109 E19.6384
G1 X127.304 Y85.86 E19.67674
G1 X127.388 Y86.625 E19.71513
G1 X127.4 Y87.05 E19.73634
G1 X127.4 Y92.15 E19.99078
G1 X127.36 Y92.918 E20.02915
G1 X127.241 Y93.678 E20.06753
G1 X127.043 Y94.421 E20.10589
G1 X126.769 Y95.14 E20.14428
G1 X126.422 Y95.826 E20.18263
G1 X126.006 Y96.473 E20.22101
G1 X125.525 Y97.073 E20.25937
G1 X125.116 Y97.5 E20.28887
G1 X124.544 Y98.014 E20.32724
G1 X123.922 Y98.467 E20.36563
G1 X123.257 Y98.853 E20.40399
G1 X122.555 Y99.168 E20.44238
G1 X122.067 Y99.328 E20.468
G1 X122.067 Y119.444 E21.47159
G1 X122.027 Y120.212 E21.50996
G1 X121.846 Y121.239 E21.56198
G1 X121.835 Y121.283 E21.56425
G1 X121.61 Y122.018 E21.6026
G1 X121.204 Y122.935 E21.65263
G1 X116.002 Y132.818 E22.20983
G1 X115.609 Y133.479 E22.24819
G1 X115.149 Y134.096 E22.28659
G1 X114.628 Y134.661 E22.32493
G1 X114.051 Y135.17 E22.36332
G1 X113.425 Y135.616 E22.40166
G1 X112.755 Y135.994 E22.44004
G1 X112.05 Y136.301 E22.47841
G1 X111.316 Y136.533 E22.51681
G1 X110.563 Y136.687 E22.55516
G1 X109.454 Y136.771 E22.61064
G1 X109.212 Y136.771 E22.62272
G1 X108.444 Y136.731 E22.66108
G1 X107.684 Y136.612 E22.69946
G1 X106.941 Y136.414 E22.73782
G1 X106.222 Y136.14 E22.77621
G1 X105.536 Y135.793 E22.81457
G1 X104.889 Y135.377 E22.85294
G1 X104.289 Y134.896 E22.89131
G1 X103.742 Y134.355 E22.92969
G1 X103.254 Y133.76 E22.96808
G1 X102.663 Y132.817 E23.0236
G1 X97.462 Y122.934 E23.58078
G1 X97.14 Y122.236 E23.61913
G1 X96.832 Y121.283 E23.66909
G1 X96.821 Y121.239 E23.67136
G1 X96.673 Y120.484 E23.70974
G1 X96.6 Y119.444 E23.76175
G1 X96.6 Y99.333 E24.7651
G1 X96.513 Y99.31 E24.76959
G1 X95.794 Y99.036 E24.80797
G1 X95.4 Y98.837 E24.82999
G1 X95.4 Y121.145 E25.94295
G1 X95.36 Y121.913 E25.98131
G1 X95.241 Y122.673 E26.01969
G1 X95.043 Y123.416 E26.05805
G1 X94.769 Y124.135 E26.09644
G1 X94.422 Y124.821 E26.1348
G1 X94.18 Y125.197 E26.1571
G1 X94.25 Y125.295 E26.16311
G1 X94.627 Y125.965 E26.20147
G1 X94.933 Y126.671 E26.23986
G1 X95.164 Y127.405 E26.27825
G1 X95.318 Y128.158 E26.31659
G1 X95.4 Y129.258 E26.37162
G1 X95.4 Y131.602 E26.48856
G1 X95.36 Y132.37 E26.52693
G1 X95.241 Y133.13 E26.56531
G1 X95.043 Y133.873 E26.60367
G1 X94.769 Y134.592 E26.64206
G1 X94.422 Y135.278 E26.68041
G1 X94.006 Y135.925 E26.71879
G1 X93.525 Y136.525 E26.75715
G1 X93.116 Y136.952 E26.78665
G1 X92.544 Y137.466 E26.82502
G1 X91.922 Y137.919 E26.86341
G1 X91.257 Y138.305 E26.90177
G1 X90.555 Y138.62 E26.94016
G1 X89.824 Y138.86 E26.97854
G1 X89.073 Y139.023 E27.01688
G1 X88.308 Y139.107 E27.05528
G1 X87.883 Y139.119 E27.07649
G1 X80.117 Y139.119 E27.46394
G1 X79.349 Y139.079 E27.5023
G1 X78.589 Y138.96 E27.54068
G1 X77.846 Y138.762 E27.57905
G1 X77.127 Y138.488 E27.61743
G1 X76.441 Y138.141 E27.65579
G1 X75.794 Y137.725 E27.69416
G1 X75.194 Y137.244 E27.73253
G1 X74.767 Y136.835 E27.76203
G1 X74.253 Y136.263 E27.80039
G1 X73.8 Y135.641 E27.83878
G1 X73.414 Y134.976 E27.87714
G1 X73.099 Y134.274 E27.91553
G1 X72.859 Y133.543 E27.95392
G1 X72.696 Y132.792 E27.99226
G1 X72.612 Y132.027 E28.03065
G1 X72.6 Y131.602 E28.05186
G1 X72.6 Y129.256 E28.16891
G1 X72.64 Y128.488 E28.20727
G1 X72.759 Y127.728 E28.24565
G1 X72.957 Y126.985 E28.28401
G1 X73.231 Y126.266 E28.3224
G1 X73.578 Y125.58 E28.36075
G1 X73.817 Y125.208 E28.38281
G1 X73.8 Y125.184 E28.38428
G1 X73.414 Y124.519 E28.42264
G1 X73.099 Y123.817 E28.46103
G1 X72.859 Y123.086 E28.49941
G1 X72.696 Y122.335 E28.53775
G1 X72.612 Y121.57 E28.57615
G1 X72.6 Y121.145 E28.59736
G1 X72.6 Y92.384 E30.03225
G1 X72.64 Y91.616 E30.07062
G1 X72.759 Y90.856 E30.109
G1 X72.957 Y90.113 E30.14736
G1 X73.231 Y89.394 E30.18575
G1 X73.578 Y88.708 E30.2241
G1 X73.994 Y88.061 E30.26248
G1 X74.475 Y87.461 E30.30084
G1 X74.884 Y87.034 E30.33034
G1 X75.456 Y86.52 E30.36871
G0 F3600 X75.724 Y86.817
G1 F1800 X76.33 Y86.38 E30.40598
G1 X76.98 Y86.009 E30.44332
G1 X77.666 Y85.71 E30.48066
G1 X78.38 Y85.486 E30.51799
G1 X79.113 Y85.339 E30.55529
G1 X80.117 Y85.267 E30.60551
G1 X87.883 Y85.267 E30.99295
G1 X88.63 Y85.307 E31.03028
G1 X89.368 Y85.426 E31.06757
G1 X90.09 Y85.624 E31.10492
G1 X90.786 Y85.897 E31.14222
G1 X91.449 Y86.244 E31.17955
G1 X91.701 Y86.412 E31.19466
G1 X91.707 Y86.303 E31.20011
G1 X91.826 Y85.565 E31.23741
G1 X92.024 Y84.843 E31.27476
G1 X92.297 Y84.147 E31.31205
G1 X92.644 Y83.484 E31.34939
G1 X93.059 Y82.861 E31.38673
G1 X93.717 Y82.1 E31.43693
G1 X93.834 Y81.983 E31.44518
G1 X94.391 Y81.483 E31.48252
G1 X94.997 Y81.046 E31.5198
G1 X95.647 Y80.675 E31.55714
G1 X96.333 Y80.376 E31.59447
G1 X97.047 Y80.152 E31.6318
G1 X97.78 Y80.005 E31.6691
G1 X98.784 Y79.933 E31.71932
G1 X99.667 Y79.933 E31.76337
G1 X99.667 Y68.384 E32.33956
G1 X99.707 Y67.637 E32.37688
G1 X99.826 Y66.899 E32.41417
G1 X100.024 Y66.177 E32.45152
G1 X100.297 Y65.481 E32.48882
G1 X100.644 Y64.818 E32.52616
G1 X101.059 Y64.195 E32.5635
G1 X101.717 Y63.434 E32.61369
G1 X101.834 Y63.317 E32.62195
G1 X102.391 Y62.817 E32.65929
G1 X102.997 Y62.38 E32.69656
G1 X103.647 Y62.009 E32.7339
G1 X104.333 Y61.71 E32.77124
G1 X105.047 Y61.486 E32.80857
G1 X105.78 Y61.339 E32.84587
G1 X106.784 Y61.267 E32.89609
G1 X111.883 Y61.267 E33.15048
G1 X112.63 Y61.307 E33.1878
G1 X113.368 Y61.426 E33.22509
G1 X114.09 Y61.624 E33.26244
G1 X114.786 Y61.897 E33.29974
G1 X115.449 Y62.244 E33.33708
G1 X116.072 Y62.659 E33.37442
G1 X116.833 Y63.317 E33.42461
G1 X116.95 Y63.434 E33.43287
G1 X117.45 Y63.991 E33.47021
G1 X117.887 Y64.597 E33.50749
G1 X118.258 Y65.247 E33.54483
G1 X118.557 Y65.933 E33.58216
G1 X118.781 Y66.647 E33.61949
G1 X118.928 Y67.38 E33.65679
G1 X119 Y68.384 E33.70701
G1 X119 Y79.933 E34.28319
G1 X119.883 Y79.933 E34.32724
G1 X120.63 Y79.973 E34.36457
G1 X121.368 Y80.092 E34.40186
G1 X122.09 Y80.29 E34.43921
G1 X122.786 Y80.563 E34.47651
G1 X123.449 Y80.91 E34.51384
G1 X124.072 Y81.325 E34.55119
G1 X124.833 Y81.983 E34.60138
G1 X124.95 Y82.1 E34.60964
G1 X125.45 Y82.657 E34.64698
G1 X125.887 Y83.263 E34.68425
G1 X126.258 Y83.913 E34.72159
G1 X126.557 Y84.599 E34.75893
G1 X126.781 Y85.313 E34.79626
G1 X126.928 Y86.046 E34.83356
G1 X127 Y87.05 E34.88378
G1 X127 Y92.15 E35.13822
G1 X126.96 Y92.897 E35.17554
G1 X126.841 Y93.635 E35.21283
G1 X126.643 Y94.357 E35.25018
G1 X126.37 Y95.053 E35.28748
G1 X126.023 Y95.716 E35.32482
G1 X125.608 Y96.339 E35.36216
G1 X124.95 Y97.1 E35.41235
G1 X124.833 Y97.217 E35.42061
G1 X124.276 Y97.717 E35.45795
